<?xml version="1.0" encoding="UTF-8"?>
<map version="1.10" tiledversion="1.12.2" orientation="isometric" renderorder="right-down" width="30" height="30" tilewidth="32" tileheight="16" infinite="0" nextlayerid="2" nextobjectid="1">
 <tileset firstgid="1" source="../sbs_-_isometric_overworld_pack_-_large/Overworld - Large/Flat/Tiled Tsx/spritesheet.tsx"/>
 <tileset firstgid="122" source="../sbs_-_isometric_overworld_pack_-_large/Overworld - Large/Flat/Tiled Tsx/spritesheet.tsx"/>
 <layer id="1" name="Tile Layer 1" width="30" height="30">
  <data encoding="csv">
242,242,242,242,242,242,242,242,242,242,41,41,41,41,41,41,41,41,41,41,242,203,242,242,242,242,242,242,242,242,
194,242,242,242,242,242,242,242,242,242,41,41,41,166,41,41,149,41,41,41,242,242,242,242,242,242,242,242,242,242,
242,242,242,242,242,242,242,242,242,242,41,41,41,180,41,41,41,41,166,41,242,242,242,242,242,242,242,242,242,242,
242,242,242,242,242,242,242,242,242,242,41,181,41,166,41,41,166,41,41,41,242,242,242,242,242,242,242,194,242,242,
242,242,242,242,242,242,242,242,242,242,41,41,41,41,41,41,41,151,41,41,242,242,242,242,202,242,242,242,242,242,
242,242,242,242,242,242,242,242,242,242,41,41,41,151,151,41,41,166,41,41,242,242,242,242,242,242,242,242,242,242,
242,242,242,242,242,242,242,242,242,242,41,41,41,41,180,41,166,149,41,41,242,242,242,242,242,242,242,242,242,242,
242,242,242,242,194,242,242,242,202,242,41,166,41,41,41,173,41,149,41,41,242,242,242,242,203,242,242,242,242,242,
242,242,242,242,242,242,242,242,242,242,41,41,166,171,41,41,41,41,41,41,242,242,242,242,242,242,242,242,242,242,
242,242,242,242,242,242,242,242,242,242,41,180,41,41,41,41,41,41,41,41,242,242,242,242,242,242,242,242,242,242,
41,41,41,41,41,41,41,41,41,41,41,41,41,41,173,41,41,41,166,41,41,166,41,41,41,41,41,41,41,41,
41,41,151,166,41,41,166,41,149,149,149,41,41,41,41,41,41,41,166,41,41,41,41,41,41,41,149,149,41,41,
41,41,151,41,167,41,41,41,149,149,149,41,41,41,41,41,41,171,41,41,167,41,41,167,41,41,166,41,41,149,
41,41,41,41,41,41,41,166,149,41,41,41,41,41,41,41,41,41,41,41,41,181,41,41,41,41,149,41,149,149,
41,41,41,166,41,181,41,41,41,41,41,166,41,41,41,182,182,41,41,149,149,41,41,41,41,180,149,151,149,41,
41,41,41,41,41,41,41,41,166,41,41,41,41,41,41,182,182,41,41,149,149,41,41,166,41,41,41,41,41,41,
41,149,41,166,41,167,166,41,151,151,41,41,166,41,41,166,41,41,41,41,166,41,167,41,41,151,151,41,41,41,
41,41,41,166,41,41,41,41,41,151,41,41,41,41,173,41,41,41,41,166,166,41,41,41,151,41,167,41,41,41,
41,41,41,41,41,180,41,41,41,41,41,41,41,41,41,41,41,41,41,41,41,41,41,41,41,41,41,41,41,41,
41,41,41,41,41,41,41,41,41,41,149,149,41,167,181,41,41,41,41,41,41,41,41,41,41,41,41,41,41,41,
242,242,242,242,242,242,242,242,242,242,149,149,41,41,41,41,167,41,41,41,242,242,242,242,242,242,242,242,242,242,
242,242,242,242,242,242,242,242,242,242,41,41,41,41,41,41,41,151,41,41,242,242,242,242,242,242,242,242,242,242,
242,242,202,242,242,242,203,242,242,242,149,149,41,166,41,41,41,166,41,41,242,242,194,242,242,202,242,242,242,242,
242,242,242,242,242,242,242,242,242,242,149,149,41,41,41,41,41,41,41,41,242,242,242,242,242,242,242,242,242,242,
242,242,242,242,242,242,203,242,242,242,41,41,41,41,41,41,41,41,41,41,242,242,242,242,242,242,242,242,242,242,
242,242,242,242,242,242,242,242,242,242,41,41,41,166,41,166,180,180,41,41,242,242,242,242,199,199,242,242,242,242,
242,242,242,242,242,242,242,242,242,242,41,41,41,41,41,41,41,41,41,41,242,242,242,242,242,242,242,242,242,242,
242,242,242,242,242,242,194,242,242,242,41,166,166,41,41,41,41,41,41,41,242,242,242,242,242,242,242,242,242,242,
242,242,242,242,242,242,242,242,242,242,41,41,41,41,41,41,41,166,41,41,242,242,242,242,242,242,242,242,242,242,
242,242,242,242,242,242,242,242,242,242,41,41,41,41,41,41,41,41,41,41,242,242,242,242,242,242,242,242,242,242
</data>
 </layer>
</map>
