<?xml version="1.0" encoding="UTF-8"?>
<map version="1.10" tiledversion="1.12.2" orientation="orthogonal" renderorder="right-down" width="120" height="100" tilewidth="16" tileheight="16" infinite="0" nextlayerid="6" nextobjectid="2">
 <editorsettings>
  <export target="map.json" format="json"/>
 </editorsettings>
 <tileset firstgid="1" source="ts1.tsx"/>
 <tileset firstgid="6091" source="ts2.tsx"/>
 <tileset firstgid="12181" source="ts3.tsx"/>
 <tileset firstgid="18325" source="ts4.tsx"/>
 <tileset firstgid="33931" source="vts1.tsx"/>
 <tileset firstgid="34187" source="vts2.tsx"/>
 <tileset firstgid="34443" source="vts4.tsx"/>
 <layer id="1" name="Tile Layer 1" width="120" height="100" visible="0">
  <data encoding="csv">
550,551,552,550,551,552,550,551,552,550,551,552,550,551,552,550,551,552,550,551,552,550,551,552,550,551,552,550,551,552,550,551,552,550,551,552,550,551,552,550,551,552,550,551,552,550,551,552,550,551,552,550,551,552,550,551,552,550,551,552,550,551,552,550,551,552,550,551,552,550,551,552,550,551,552,550,551,552,550,551,552,550,551,552,550,551,552,550,551,552,550,551,552,550,551,552,550,551,552,550,551,552,550,551,552,550,551,552,550,551,552,550,551,552,550,551,552,550,551,552,
637,638,639,637,638,639,637,638,639,637,638,639,637,638,639,637,638,639,637,638,639,637,638,639,637,638,639,637,638,639,637,638,639,637,638,639,637,638,639,637,638,639,637,638,639,637,638,639,637,638,639,637,638,639,637,638,639,637,638,639,637,638,639,637,638,639,637,638,639,637,638,639,637,638,639,637,638,639,637,638,639,637,638,639,637,638,639,637,638,639,637,638,639,637,638,639,637,638,639,637,638,639,637,638,639,637,638,639,637,638,639,637,638,639,637,638,639,637,638,639,
724,725,726,724,725,726,724,725,726,724,725,726,724,725,726,724,725,726,724,725,726,724,725,726,724,725,726,724,725,726,724,725,726,724,725,726,724,725,726,724,725,726,724,725,726,724,725,726,724,725,726,724,725,726,724,725,726,724,725,726,724,725,726,724,725,726,724,725,726,724,725,726,724,725,726,724,725,726,724,725,726,724,725,726,724,725,726,724,725,726,724,725,726,724,725,726,724,725,726,724,725,726,724,725,726,724,725,726,724,725,726,724,725,726,724,725,726,724,725,726,
550,551,552,550,551,552,550,551,552,550,551,552,550,551,552,550,551,552,550,551,552,550,551,552,550,551,552,550,551,552,550,551,552,550,551,552,550,551,552,550,551,552,550,551,552,550,551,552,550,551,552,550,551,552,550,551,552,550,551,552,550,551,552,550,551,552,550,551,552,550,551,552,550,551,552,550,551,552,550,551,552,550,551,552,550,551,552,550,551,552,550,551,552,550,551,552,550,551,552,550,551,552,550,551,552,550,551,552,550,551,552,550,551,552,550,551,552,550,551,552,
637,638,639,637,638,639,637,638,639,637,638,639,637,638,639,637,638,639,637,638,639,637,638,639,637,638,639,637,638,639,637,638,639,637,638,639,637,638,639,637,638,639,637,638,639,637,638,639,637,638,639,637,638,639,637,638,639,637,638,639,637,638,639,637,638,639,637,638,639,637,638,639,637,638,639,637,638,639,637,638,639,637,638,639,637,638,639,637,638,639,637,638,639,637,638,639,637,638,639,637,638,639,637,638,639,637,638,639,637,638,639,637,638,639,637,638,639,637,638,639,
724,725,726,724,725,726,724,725,726,724,725,726,724,725,726,724,725,726,724,725,726,724,725,726,724,725,726,724,725,726,724,725,726,724,725,726,724,725,726,724,725,726,724,725,726,724,725,726,724,725,726,724,725,726,724,725,726,724,725,726,724,725,726,724,725,726,724,725,726,724,725,726,724,725,726,724,725,726,724,725,726,724,725,726,724,725,726,724,725,726,724,725,726,724,725,726,724,725,726,724,725,726,724,725,726,724,725,726,724,725,726,724,725,726,724,725,726,724,725,726,
550,551,552,550,551,552,550,551,552,550,551,552,550,551,552,550,551,552,550,551,552,550,551,552,550,551,552,550,551,552,550,551,552,550,551,552,550,551,552,550,551,552,550,551,552,550,551,552,550,551,552,550,551,552,550,551,552,550,551,552,550,551,552,550,551,552,550,551,552,550,551,552,550,551,552,550,551,552,550,551,552,550,551,552,550,551,552,550,551,552,550,551,552,550,551,552,550,551,552,550,551,552,550,551,552,550,551,552,550,551,552,550,551,552,550,551,552,550,551,552,
637,638,639,637,638,639,637,638,639,637,638,639,637,638,639,637,638,639,637,638,639,637,638,639,637,638,639,637,638,639,637,638,639,637,638,639,637,638,639,637,638,639,637,638,639,637,638,639,637,638,639,637,638,639,637,638,639,637,638,639,637,638,639,637,638,639,637,638,639,637,638,639,637,638,639,637,638,639,637,638,639,637,638,639,637,638,639,637,638,639,637,638,639,637,638,639,637,638,639,637,638,639,637,638,639,637,638,639,637,638,639,637,638,639,637,638,639,637,638,639,
724,725,726,724,725,726,724,725,726,724,725,726,724,725,726,724,725,726,724,725,726,724,725,726,724,725,726,724,725,726,724,725,726,724,725,726,724,725,726,724,725,726,724,725,726,724,725,726,724,725,726,724,725,726,724,725,726,724,725,726,724,725,726,724,725,726,724,725,726,724,725,726,724,725,726,724,725,726,724,725,726,724,725,726,724,725,726,724,725,726,724,725,726,724,725,726,724,725,726,724,725,726,724,725,726,724,725,726,724,725,726,724,725,726,724,725,726,724,725,726,
550,551,552,550,551,552,550,551,552,550,551,552,550,551,552,550,551,552,550,551,552,550,551,552,550,551,552,550,551,552,550,551,552,550,551,552,550,551,552,550,551,552,550,551,552,550,551,552,550,551,552,550,551,552,550,551,552,550,551,552,550,551,552,550,551,552,550,551,552,550,551,552,550,551,552,550,551,552,550,551,552,550,551,552,550,551,552,550,551,552,550,551,552,550,551,552,550,551,552,550,551,552,550,551,552,550,551,552,550,551,552,550,551,552,550,551,552,550,551,552,
637,638,639,637,638,639,637,638,639,637,638,639,637,638,639,637,638,639,637,638,639,637,638,639,637,638,639,637,638,639,637,638,639,637,638,639,637,638,639,637,638,639,637,638,639,637,638,639,637,638,639,637,638,639,637,638,639,637,638,639,637,638,639,637,638,639,637,638,639,637,638,639,637,638,639,637,638,639,637,638,639,637,638,639,637,638,639,637,638,639,637,638,639,637,638,639,637,638,639,637,638,639,637,638,639,637,638,639,637,638,639,637,638,639,637,638,639,637,638,639,
724,725,726,724,725,726,724,725,726,724,725,726,724,725,726,724,725,726,724,725,726,724,725,726,724,725,726,724,725,726,724,725,726,724,725,726,724,725,726,724,725,726,724,725,726,724,725,726,724,725,726,724,725,726,724,725,726,724,725,726,724,725,726,724,725,726,724,725,726,724,725,726,724,725,726,724,725,726,724,725,726,724,725,726,724,725,726,724,725,726,724,725,726,724,725,726,724,725,726,724,725,726,724,725,726,724,725,726,724,725,726,724,725,726,724,725,726,724,725,726,
550,551,552,550,551,552,550,551,552,550,551,552,550,551,552,550,551,552,550,551,552,550,551,552,550,551,552,550,551,552,550,551,552,550,551,552,550,551,552,550,551,552,550,551,552,550,551,552,550,551,552,550,551,552,550,551,552,550,551,552,550,551,552,550,551,552,550,551,552,550,551,552,550,551,552,550,551,552,550,551,552,550,551,552,550,551,552,550,551,552,550,551,552,550,551,552,550,551,552,550,551,552,550,551,552,550,551,552,550,551,552,550,551,552,550,551,552,550,551,552,
637,638,639,637,638,639,637,638,639,637,638,639,637,638,639,637,638,639,637,638,639,637,638,639,637,638,639,637,638,639,637,638,639,637,638,639,637,638,639,637,638,639,637,638,639,637,638,639,637,638,639,637,638,639,637,638,639,637,638,639,637,638,639,637,638,639,637,638,639,637,638,639,637,638,639,637,638,639,637,638,639,637,638,639,637,638,639,637,638,639,637,638,639,637,638,639,637,638,639,637,638,639,637,638,639,637,638,639,637,638,639,637,638,639,637,638,639,637,638,639,
724,725,726,724,725,726,724,725,726,724,725,726,724,725,726,724,725,726,724,725,726,724,725,726,724,725,726,724,725,726,724,725,726,724,725,726,724,725,726,724,725,726,724,725,726,724,725,726,724,725,726,724,725,726,724,725,726,724,725,726,724,725,726,724,725,726,724,725,726,724,725,726,724,725,726,724,725,726,724,725,726,724,725,726,724,725,726,724,725,726,724,725,726,724,725,726,724,725,726,724,725,726,724,725,726,724,725,726,724,725,726,724,725,726,724,725,726,724,725,726,
550,551,552,550,551,552,550,551,552,550,551,552,550,551,552,550,551,552,550,551,552,550,551,552,550,551,552,550,551,552,550,551,552,550,551,552,550,551,552,550,551,552,550,551,552,550,551,552,550,551,552,550,551,552,550,551,552,550,551,552,550,551,552,550,551,552,550,551,552,550,551,552,550,551,552,550,551,552,550,551,552,550,551,552,550,551,552,550,551,552,550,551,552,550,551,552,550,551,552,550,551,552,550,551,552,550,551,552,550,551,552,550,551,552,550,551,552,550,551,552,
637,638,639,637,638,639,637,638,639,637,638,639,637,638,639,637,638,639,637,638,639,637,638,639,637,638,639,637,638,639,637,638,639,637,638,639,637,638,639,637,638,639,637,638,639,637,638,639,637,638,639,637,638,639,637,638,639,637,638,639,637,638,639,637,638,639,637,638,639,637,638,639,637,638,639,637,638,639,637,638,639,637,638,639,637,638,639,637,638,639,637,638,639,637,638,639,637,638,639,637,638,639,637,638,639,637,638,639,637,638,639,637,638,639,637,638,639,637,638,639,
724,725,726,724,725,726,724,725,726,724,725,726,724,725,726,724,725,726,724,725,726,724,725,726,724,725,726,724,725,726,724,725,726,724,725,726,724,725,726,724,725,726,724,725,726,724,725,726,724,725,726,724,725,726,724,725,726,724,725,726,724,725,726,724,725,726,724,725,726,724,725,726,724,725,726,724,725,726,724,725,726,724,725,726,724,725,726,724,725,726,724,725,726,724,725,726,724,725,726,724,725,726,724,725,726,724,725,726,724,725,726,724,725,726,724,725,726,724,725,726,
550,551,552,550,551,552,550,551,552,550,551,552,550,551,552,550,551,552,550,551,552,550,551,552,550,551,552,550,551,552,550,551,552,550,551,552,550,551,552,550,551,552,550,551,552,550,551,552,550,551,552,550,551,552,550,551,552,550,551,552,550,551,552,550,551,552,550,551,552,550,551,552,550,551,552,550,551,552,550,551,552,550,551,552,550,551,552,550,551,552,550,551,552,550,551,552,550,551,552,550,551,552,550,551,552,550,551,552,550,551,552,550,551,552,550,551,552,550,551,552,
637,638,639,637,638,639,637,638,639,637,638,639,637,638,639,637,638,639,637,638,639,637,638,639,637,638,639,637,638,639,637,638,639,637,638,639,637,638,639,637,638,639,637,638,639,637,638,639,637,638,639,637,638,639,637,638,639,637,638,639,637,638,639,637,638,639,637,638,639,637,638,639,637,638,639,637,638,639,637,638,639,637,638,639,637,638,639,637,638,639,637,638,639,637,638,639,637,638,639,637,638,639,637,638,639,637,638,639,637,638,639,637,638,639,637,638,639,637,638,639,
724,725,726,724,725,726,724,725,726,724,725,726,724,725,726,724,725,726,724,725,726,724,725,726,724,725,726,724,725,726,724,725,726,724,725,726,724,725,726,724,725,726,724,725,726,724,725,726,724,725,726,724,725,726,724,725,726,724,725,726,724,725,726,724,725,726,724,725,726,724,725,726,724,725,726,724,725,726,724,725,726,724,725,726,724,725,726,724,725,726,724,725,726,724,725,726,724,725,726,724,725,726,724,725,726,724,725,726,724,725,726,724,725,726,724,725,726,724,725,726,
550,551,552,550,551,552,550,551,552,550,551,552,550,551,552,550,551,552,550,551,552,550,551,552,550,551,552,550,551,552,550,551,552,550,551,552,550,551,552,550,551,552,550,551,552,550,551,552,550,551,552,550,551,552,550,551,552,550,551,552,550,551,552,550,551,552,550,551,552,550,551,552,550,551,552,550,551,552,550,551,552,550,551,552,550,551,552,550,551,552,550,551,552,550,551,552,550,551,552,550,551,552,550,551,552,550,551,552,550,551,552,550,551,552,550,551,552,550,551,552,
637,638,639,637,638,639,637,638,639,637,638,639,637,638,639,637,638,639,637,638,639,637,638,639,637,638,639,637,638,639,637,638,639,637,638,639,637,638,639,637,638,639,637,638,639,637,638,639,637,638,639,637,638,639,637,638,639,637,638,639,637,638,639,637,638,639,637,638,639,637,638,639,637,638,639,637,638,639,637,638,639,637,638,639,637,638,639,637,638,639,637,638,639,637,638,639,637,638,639,637,638,639,637,638,639,637,638,639,637,638,639,637,638,639,637,638,639,637,638,639,
724,725,726,724,725,726,724,725,726,724,725,726,724,725,726,724,725,726,724,725,726,724,725,726,724,725,726,724,725,726,724,725,726,724,725,726,724,725,726,724,725,726,724,725,726,724,725,726,724,725,726,724,725,726,724,725,726,724,725,726,724,725,726,724,725,726,724,725,726,724,725,726,724,725,726,724,725,726,724,725,726,724,725,726,724,725,726,724,725,726,724,725,726,724,725,726,724,725,726,724,725,726,724,725,726,724,725,726,724,725,726,724,725,726,724,725,726,724,725,726,
550,551,552,550,551,552,550,551,552,550,551,552,550,551,552,550,551,552,550,551,552,550,551,552,550,551,552,550,551,552,550,551,552,550,551,552,550,551,552,550,551,552,550,551,552,550,551,552,550,551,552,550,551,552,550,551,552,550,551,552,550,551,552,550,551,552,550,551,552,550,551,552,550,551,552,550,551,552,550,551,552,550,551,552,550,551,552,550,551,552,550,551,552,550,551,552,550,551,552,550,551,552,550,551,552,550,551,552,550,551,552,550,551,552,550,551,552,550,551,552,
637,638,639,637,638,639,637,638,639,637,638,639,637,638,639,637,638,639,637,638,639,637,638,639,637,638,639,637,638,639,637,638,639,637,638,639,637,638,639,637,638,639,637,638,639,637,638,639,637,638,639,637,638,639,637,638,639,637,638,639,637,638,639,637,638,639,637,638,639,637,638,639,637,638,639,637,638,639,637,638,639,637,638,639,637,638,639,637,638,639,637,638,639,637,638,639,637,638,639,637,638,639,637,638,639,637,638,639,637,638,639,637,638,639,637,638,639,637,638,639,
724,725,726,724,725,726,724,725,726,724,725,726,724,725,726,724,725,726,724,725,726,724,725,726,724,725,726,724,725,726,724,725,726,724,725,726,724,725,726,724,725,726,724,725,726,724,725,726,724,725,726,724,725,726,724,725,726,724,725,726,724,725,726,724,725,726,724,725,726,724,725,726,724,725,726,724,725,726,724,725,726,724,725,726,724,725,726,724,725,726,724,725,726,724,725,726,724,725,726,724,725,726,724,725,726,724,725,726,724,725,726,724,725,726,724,725,726,724,725,726,
550,551,552,550,551,552,550,551,552,550,551,552,550,551,552,550,551,552,550,551,552,550,551,552,550,551,552,550,551,552,550,551,552,550,551,552,550,551,552,550,551,552,550,551,552,550,551,552,550,551,552,550,551,552,550,551,552,550,551,552,550,551,552,550,551,552,550,551,552,550,551,552,550,551,552,550,551,552,550,551,552,550,551,552,550,551,552,550,551,552,550,551,552,550,551,552,550,551,552,550,551,552,550,551,552,550,551,552,550,551,552,550,551,552,550,551,552,550,551,552,
637,638,639,637,638,639,637,638,639,637,638,639,637,638,639,637,638,639,637,638,361,361,361,361,361,361,361,361,361,361,361,361,361,361,361,361,361,638,639,637,638,639,637,638,639,637,638,639,637,638,639,637,638,639,637,638,639,637,638,639,637,638,639,637,638,639,637,638,639,637,638,639,637,638,639,637,638,639,637,638,639,637,638,639,637,638,639,637,638,639,637,638,639,637,638,639,637,638,639,637,638,639,637,638,639,637,638,639,637,638,639,637,638,639,637,638,639,637,638,639,
724,725,726,724,725,726,724,725,726,724,725,726,724,725,726,724,725,726,724,725,361,361,4405,4406,4405,4406,4405,4406,4405,4406,4405,4406,4405,4406,4405,4406,361,274,273,274,273,361,361,361,361,361,361,361,361,361,361,361,361,361,724,725,726,724,725,726,724,725,726,724,725,726,724,725,726,724,725,726,724,725,726,724,725,726,724,725,726,724,725,726,724,725,726,724,725,726,724,725,726,724,725,726,724,725,726,724,725,726,724,725,726,724,725,726,724,725,726,724,725,726,724,725,726,724,725,726,
550,551,552,550,551,552,550,551,552,550,551,552,550,551,552,550,551,552,550,551,361,361,4492,4493,4492,4493,4492,4493,4492,4493,4492,4493,4492,4493,4492,4493,360,361,360,361,360,361,4405,4406,4405,4406,4405,4406,4405,4406,4405,4406,4405,361,550,551,552,550,551,552,550,551,552,550,551,552,550,551,552,550,551,552,550,551,552,550,551,552,550,551,552,550,551,552,550,551,552,550,551,552,550,551,552,550,551,552,550,551,552,550,551,552,550,551,552,550,551,552,550,551,552,550,551,552,550,551,552,550,551,552,
637,638,639,637,638,639,637,638,639,637,638,639,637,638,639,637,638,639,637,638,361,361,4405,4406,4405,4406,4405,4406,4405,4406,4405,4406,4405,4406,4405,4406,273,274,273,274,273,274,4492,4493,4492,4493,4492,4493,4492,4493,4492,4493,4492,361,361,638,639,637,638,639,637,638,639,637,638,639,637,638,639,637,638,639,637,638,639,637,638,639,637,638,639,637,638,639,637,638,639,637,638,639,637,638,639,637,638,639,637,638,639,637,638,639,637,638,639,637,638,639,637,638,639,637,638,639,637,638,639,637,638,639,
724,725,726,724,725,726,724,725,726,724,725,726,724,725,726,724,725,726,724,725,361,361,4492,4493,4492,4493,4492,4493,4492,4493,4492,4493,4492,4493,4492,4493,360,361,360,361,360,361,4405,4406,4405,4406,4405,4406,4405,4406,4405,4406,4405,4405,361,725,726,724,725,726,724,725,726,724,725,726,724,725,726,724,725,726,724,725,726,724,725,726,724,725,726,724,725,726,724,725,726,724,725,726,724,725,726,724,725,726,724,725,726,724,725,726,724,725,726,724,725,726,724,725,726,724,725,726,724,725,726,724,725,726,
550,551,552,550,551,552,550,551,552,550,551,552,550,551,552,550,551,552,550,551,361,361,4405,4406,4405,4406,4405,4406,4405,4406,4405,4406,4405,4406,4405,4406,273,274,273,274,273,274,4492,4493,4492,4493,4492,4493,4492,4493,4492,4493,4492,4492,361,551,552,550,551,552,550,551,552,550,551,552,550,551,552,550,551,552,550,551,552,550,551,552,550,551,552,550,551,552,550,551,552,550,551,552,550,551,552,550,551,552,550,551,552,550,551,552,550,551,552,550,551,552,550,551,552,550,551,552,550,551,552,550,551,552,
637,638,639,637,638,639,637,638,639,637,638,639,637,638,639,637,638,639,637,638,361,361,4492,4493,4492,4493,4492,4493,4492,4493,4492,4493,4492,4493,4492,4493,360,361,360,361,360,361,4405,4406,4405,4406,4405,4406,4405,4406,4405,4406,4405,4405,361,361,639,637,638,639,637,638,639,637,638,639,637,638,639,637,638,639,637,638,639,637,638,639,637,638,639,637,638,639,637,638,639,637,638,639,637,638,639,637,273,274,273,638,639,637,638,639,637,638,639,637,638,639,637,638,639,637,638,639,637,638,639,637,638,639,
724,725,726,724,725,726,724,725,726,724,725,726,724,725,726,724,725,726,724,725,361,361,4405,4406,4405,4406,4405,4406,4405,4406,4405,4406,4405,4406,4405,4406,273,274,273,274,273,274,4492,4493,4492,4493,4492,4493,4492,4493,4492,4493,4492,4492,361,361,726,724,725,726,724,725,726,724,725,726,724,725,726,724,725,726,724,725,726,724,725,726,724,725,726,724,725,726,724,725,726,724,725,726,724,725,726,724,360,361,360,273,726,724,725,726,724,725,726,724,725,726,724,725,726,724,725,726,724,725,726,724,725,726,
550,551,552,550,551,552,550,551,552,550,551,552,550,551,552,550,551,552,550,551,361,361,4492,4493,4492,4493,4492,4493,4492,4493,4492,4493,4492,4493,4492,4493,360,361,360,361,360,361,4405,4406,4405,4406,4405,4406,4405,4406,4405,4406,4405,4405,361,361,552,550,551,552,550,551,552,550,551,552,550,551,552,550,551,552,550,551,552,550,551,552,550,551,552,550,551,552,550,551,552,550,551,552,550,551,552,550,273,274,273,360,273,274,551,552,550,551,552,550,551,552,550,551,552,550,551,552,550,551,552,550,551,552,
637,638,639,637,638,639,637,638,639,637,638,639,637,638,639,637,638,639,637,638,361,361,4405,4406,4405,4406,4405,4406,4405,4406,4405,4406,4405,4406,4405,4406,273,274,273,274,273,274,4492,4493,4492,4493,4492,4493,4492,4493,4492,4493,4492,4492,361,361,639,637,638,639,637,638,639,637,638,639,637,638,639,637,638,639,637,638,639,637,638,639,637,638,639,637,638,639,637,638,639,637,638,639,637,638,639,273,274,361,360,273,360,361,273,274,637,638,639,637,638,639,637,638,639,637,638,639,637,638,639,637,638,639,
724,725,726,724,725,726,724,725,726,724,725,726,724,725,726,724,725,726,724,725,361,361,4492,4493,4492,4493,4492,4493,4492,4493,4492,4493,4492,4493,4492,4493,360,361,360,361,360,361,4405,4406,4405,4406,4405,4406,4405,4406,4405,4406,4405,4405,361,361,726,724,725,726,724,725,726,724,725,726,724,725,726,724,725,726,724,725,726,724,725,726,724,725,726,724,725,726,724,725,726,724,725,726,724,725,726,273,274,274,273,360,273,274,360,361,273,725,726,724,725,726,724,725,726,724,725,726,724,725,726,724,725,726,
550,551,552,550,551,552,550,551,552,550,551,552,550,551,552,550,551,552,550,551,361,361,4405,4406,4405,4406,4405,4406,4405,4406,4405,4406,4405,4406,4405,4406,273,274,273,274,273,274,4492,4493,4492,4493,4492,4493,4492,4493,4492,4493,4492,4492,361,361,552,550,551,552,550,551,552,550,551,552,550,551,552,550,551,552,550,551,552,550,551,552,550,551,552,550,551,552,550,551,552,550,551,552,550,551,273,274,361,361,360,273,360,361,273,274,360,551,552,550,551,552,550,551,552,550,551,552,550,551,552,550,551,552,
637,638,639,637,638,639,637,638,639,637,638,639,637,638,639,637,638,639,637,638,639,637,4492,4493,4492,4493,4492,4493,4492,4493,4492,4493,4492,4493,4492,4493,360,361,360,361,360,361,4405,4406,4405,4406,4405,4406,4405,4406,4405,4406,4405,361,361,638,639,637,638,639,637,638,639,637,638,639,637,638,639,637,638,639,637,638,639,637,638,639,637,638,639,637,638,639,637,638,639,637,638,639,637,273,274,361,638,639,637,360,273,274,360,361,273,273,274,637,638,639,637,638,639,637,638,639,637,638,639,637,638,639,
724,725,726,724,725,726,724,725,726,724,725,726,724,725,726,724,725,726,724,725,726,724,4405,4406,4405,4406,4405,4406,4405,4406,4405,4406,4405,4406,4405,4406,273,274,273,274,273,274,273,274,273,274,273,274,273,274,273,274,273,274,273,725,726,724,725,726,724,725,726,724,725,726,724,725,726,724,725,726,724,725,726,724,725,726,724,725,726,724,725,726,724,725,726,724,725,726,724,273,274,724,725,726,724,725,360,361,273,274,273,273,274,724,725,726,724,725,726,724,725,726,724,725,726,724,725,726,
550,551,552,550,551,552,550,551,552,550,551,552,550,551,552,550,551,552,550,551,552,550,273,274,273,274,273,274,273,274,273,274,273,274,273,274,273,274,273,274,273,274,360,361,360,361,360,361,360,361,360,361,360,361,360,551,552,550,551,552,550,551,552,550,551,552,550,551,552,550,551,552,550,551,552,550,551,552,550,551,552,550,551,552,550,551,552,550,551,552,273,360,361,550,551,552,550,551,552,550,360,273,274,273,274,550,551,552,550,551,552,550,551,552,550,551,552,550,551,552,
637,638,639,637,638,639,637,638,639,637,638,639,637,638,639,637,638,639,637,638,639,637,360,361,360,361,360,361,360,361,360,361,360,361,360,361,360,361,360,361,360,361,360,361,273,274,273,274,637,638,639,637,638,639,637,638,639,637,638,639,637,638,639,637,638,639,637,638,639,637,638,639,637,638,639,637,638,639,637,638,639,637,638,639,637,638,639,637,638,639,273,274,639,637,638,639,637,638,639,637,638,360,361,273,274,637,638,639,637,638,639,637,638,639,637,638,639,637,638,639,
724,725,726,724,725,726,724,725,726,724,725,726,724,725,726,724,725,726,724,725,726,724,273,274,273,274,273,274,273,274,273,274,273,274,273,274,273,274,273,274,273,274,273,274,360,361,360,361,724,725,726,724,725,726,724,725,726,724,725,726,724,725,726,724,725,726,724,725,726,724,725,726,724,725,726,724,725,726,724,725,726,724,725,726,724,725,726,724,725,273,360,361,726,724,725,726,724,725,726,724,725,726,273,360,361,724,725,726,724,725,726,724,725,726,724,725,726,724,725,726,
550,551,552,550,551,552,550,551,552,550,551,552,550,551,552,550,551,552,550,551,552,550,360,361,360,361,360,361,360,361,360,361,360,361,360,361,360,361,360,361,360,361,360,361,273,274,273,274,273,274,273,274,273,274,273,274,273,274,273,274,273,274,273,4405,4406,4405,4406,4405,4406,4405,273,274,273,274,552,550,551,552,550,551,552,550,551,552,550,551,552,550,551,360,361,551,552,550,551,552,550,551,552,550,551,552,550,551,552,550,551,552,550,551,552,550,551,552,550,551,552,550,551,552,
637,638,639,637,638,639,637,638,639,637,638,639,637,638,639,637,638,639,637,638,639,637,10163,10164,10165,10163,10164,10165,10163,10164,10165,10163,10164,10165,10163,10164,10165,10163,10164,10165,10163,10163,10164,10165,10163,10164,10165,10163,10164,10165,10163,10164,10165,10163,10164,10165,10163,10164,10165,10163,360,361,360,4492,4493,4492,4493,4492,4493,4492,273,274,360,361,274,274,274,639,637,638,639,637,638,639,637,638,639,637,273,274,637,638,639,637,638,639,637,638,639,637,638,639,637,638,639,637,638,639,637,638,639,637,638,639,637,638,639,637,638,639,
724,725,726,724,725,726,724,725,726,724,725,726,724,725,726,724,725,726,724,725,726,724,10250,10251,10252,10250,10251,10252,10250,10251,10252,10250,10251,10252,10250,10251,10252,10250,10251,10252,10250,10250,10251,10252,10250,10251,10252,10250,10251,10252,10250,10251,10252,10250,10251,10252,10250,10251,10252,10250,273,274,273,4405,4406,4405,4406,4405,4406,4405,273,274,361,273,274,361,361,274,724,725,726,724,725,726,724,725,726,724,360,361,724,725,726,724,725,726,724,725,726,724,725,726,724,273,274,724,725,726,724,725,726,724,725,726,724,725,726,724,725,726,
550,551,552,550,551,552,550,551,552,550,551,552,550,551,552,550,551,552,550,551,552,550,10337,10338,10339,10337,10338,10339,10337,10338,10339,10337,10338,10339,10337,10338,10339,10337,10338,10339,10337,10337,10338,10339,10337,10338,10339,10337,10338,10339,10337,10338,10339,10337,10338,10339,10337,10338,10339,10337,360,361,360,4492,4493,4492,4493,4492,4493,4492,273,273,273,360,361,360,361,361,274,551,552,550,551,552,550,551,552,361,361,552,550,551,552,550,551,552,550,551,552,550,551,552,550,360,361,550,551,552,550,551,552,550,551,552,550,551,552,550,551,552,
637,638,639,637,638,639,637,638,639,637,638,639,637,638,639,637,638,639,637,638,639,637,10163,10164,10165,10163,10164,10165,10163,10164,10165,10163,10164,10165,10163,10164,10165,10163,10164,10165,10163,10163,10164,10165,10163,10164,10165,10163,10164,10165,10163,10164,10165,10163,10164,10165,10163,10164,10165,10163,273,274,273,361,361,361,361,361,361,273,360,360,360,361,360,273,273,273,273,273,274,361,361,361,361,361,361,361,638,639,637,638,639,637,638,639,637,638,639,637,638,639,273,274,274,637,638,639,637,638,639,637,638,639,637,638,639,637,638,639,
724,725,726,724,725,726,724,725,726,724,725,726,724,725,726,724,725,726,724,725,726,724,725,726,724,725,726,724,725,726,724,725,726,724,725,726,724,273,274,724,725,726,724,725,726,724,725,726,724,725,726,724,725,726,724,725,726,724,725,726,360,361,360,361,361,361,361,361,361,360,360,360,360,360,360,360,360,360,360,360,361,361,361,361,361,361,273,274,725,726,724,725,726,724,725,726,724,725,726,724,725,726,360,361,361,724,725,726,724,725,726,724,725,726,724,725,726,724,725,726,
550,551,552,550,551,552,550,551,552,550,551,552,550,551,552,550,551,552,550,551,552,550,273,274,273,274,273,274,273,274,1926,1926,1926,1926,1927,273,274,360,361,550,551,552,550,551,552,550,551,552,550,551,552,550,551,552,273,273,274,273,274,273,274,273,274,4405,4406,4405,4406,4405,4406,4405,361,552,550,551,552,550,551,552,550,551,552,550,551,552,550,551,273,274,551,552,550,551,552,550,551,552,550,551,552,550,551,273,360,361,274,550,551,552,550,551,552,550,551,552,550,551,552,550,551,552,
637,638,639,637,638,639,637,638,639,637,638,639,637,638,639,637,638,639,637,638,639,637,360,361,360,361,360,361,360,273,2013,2013,2013,2013,2014,360,361,273,274,637,638,639,637,638,639,637,638,639,637,638,639,637,638,639,360,10630,10631,10632,10633,360,361,360,361,4492,4493,4492,4493,4492,4493,4492,361,639,637,638,639,637,638,639,637,638,639,637,638,639,637,638,273,274,638,639,637,638,639,637,638,639,637,638,639,637,638,360,361,360,361,637,638,639,637,638,639,637,638,639,637,638,639,637,638,639,
724,725,726,724,725,726,724,725,726,724,725,726,724,725,726,724,725,726,724,725,726,724,10163,10164,10165,10163,10164,10165,10163,360,18806,34213,34214,34215,34216,34217,274,360,361,724,725,726,724,725,726,724,725,726,724,725,726,724,725,726,273,10717,10718,10719,10720,273,274,273,274,4405,4406,4405,4406,4405,4406,4405,361,726,724,725,726,724,725,726,724,725,726,724,725,726,724,725,273,274,725,726,724,725,726,724,725,726,724,725,726,724,273,273,274,725,726,724,725,726,724,725,726,724,725,726,724,725,726,724,725,726,
550,551,552,550,551,552,550,551,552,550,551,552,550,551,552,550,551,552,550,551,552,550,10250,10251,10252,10250,10251,10252,10250,18949,33957,18759,18760,18761,10389,360,361,273,274,550,551,552,550,551,552,550,551,552,550,551,552,550,551,552,360,10630,10631,10632,10633,360,361,360,361,4492,4493,4492,4493,4492,4493,4492,361,552,550,551,552,550,551,552,550,551,552,550,551,552,550,551,273,274,551,552,550,551,552,550,551,552,550,551,552,550,273,360,361,551,552,550,551,552,550,551,552,550,551,552,550,551,552,550,551,552,
637,638,639,637,638,639,637,638,639,637,638,639,637,638,639,637,638,639,637,638,639,637,10337,10338,10339,10337,10338,10339,10337,18949,18806,18759,18760,18761,10302,273,274,273,274,273,274,273,274,273,274,273,274,273,274,273,274,273,274,273,274,10717,10718,10719,10720,273,274,273,274,4405,4406,4405,4406,4405,4406,4405,361,639,637,638,639,637,638,639,637,638,639,637,638,639,637,638,273,274,638,639,637,638,639,637,638,639,637,638,639,637,360,361,637,638,639,637,638,639,637,638,639,637,638,639,637,638,639,637,638,639,
724,725,726,724,725,726,724,725,726,724,725,726,724,725,726,724,725,726,724,725,726,724,10163,10164,10165,10163,726,724,725,273,18806,18759,18760,18761,10389,273,274,273,273,274,273,274,273,274,273,274,273,274,273,274,273,274,273,274,360,10630,10631,10632,10633,360,361,360,361,4492,4493,4492,4493,4492,4493,4492,361,726,724,725,726,724,725,726,724,725,726,724,725,726,724,725,360,361,725,726,724,725,726,724,725,726,724,725,726,724,725,726,724,725,726,724,725,726,724,725,726,724,725,726,724,725,726,724,725,726,
550,551,552,550,551,552,550,551,552,550,551,552,550,551,552,550,551,552,550,551,552,550,10250,10251,10252,10250,552,550,551,18949,18806,18759,18760,18761,10302,360,361,360,361,360,551,552,550,551,552,550,551,552,550,551,552,550,551,552,273,10717,10718,10719,10720,273,274,273,274,4405,4406,4405,4406,4405,4406,4405,361,361,361,361,361,361,361,361,361,361,552,550,551,552,550,551,552,550,551,552,550,551,552,550,551,552,550,551,552,550,551,552,550,551,552,550,551,552,550,551,552,550,551,552,550,551,552,550,551,552,
637,638,639,637,638,639,637,638,639,637,638,639,637,638,639,637,638,639,637,638,639,637,10337,10338,10339,10337,639,637,638,18949,18806,18759,18760,18761,10389,273,274,273,274,273,638,639,637,638,639,637,638,639,637,638,639,637,638,639,360,10630,10631,10632,10633,360,361,360,361,273,274,273,274,273,274,273,273,274,273,274,361,361,361,361,361,361,639,637,638,639,637,638,639,637,638,639,637,638,639,637,638,639,637,638,639,637,638,639,637,638,639,637,638,639,637,638,639,637,638,639,637,638,639,637,638,639,
724,725,726,724,725,726,724,725,726,724,725,726,724,725,726,724,725,726,724,725,726,724,10163,10164,10165,10163,726,724,725,18949,18806,18759,18760,18761,10302,360,361,360,361,360,725,726,724,725,726,724,725,726,724,725,726,724,725,726,273,10717,10718,10719,10720,273,274,273,274,360,361,360,361,360,361,360,360,361,360,361,726,724,725,726,724,725,726,724,725,726,724,725,726,724,725,726,724,725,726,724,725,726,724,725,726,724,725,726,724,725,726,724,725,726,724,725,726,724,725,726,724,725,726,724,725,726,
550,551,552,550,551,552,550,551,552,550,551,552,550,551,552,550,551,552,550,551,273,274,10250,10251,10252,10250,552,550,551,273,18758,18759,18760,18761,10389,273,274,273,274,273,551,552,550,551,552,550,551,552,550,551,552,550,551,552,360,10630,10631,10632,10633,552,550,551,552,550,551,552,550,551,552,550,551,552,550,551,552,550,551,552,550,551,552,550,551,552,550,551,552,550,551,552,550,551,552,550,551,552,550,551,552,550,551,552,550,551,552,550,551,552,550,551,552,550,551,552,550,551,552,550,551,552,
637,638,639,637,638,639,637,638,639,637,638,639,637,638,639,637,638,639,637,638,273,274,10337,10338,10339,10337,639,637,638,360,18758,18759,18760,18761,10302,360,361,360,361,360,273,639,637,638,639,637,638,639,637,638,639,637,638,639,273,10717,10718,10719,10720,639,637,638,639,637,638,639,637,638,639,637,638,639,637,638,639,637,638,639,637,638,639,637,638,639,637,638,639,637,638,639,637,638,639,637,638,639,637,638,639,637,638,639,637,638,639,637,638,639,637,638,639,637,638,639,637,638,639,637,638,639,
724,725,726,724,725,726,724,725,726,724,725,726,724,725,726,724,725,726,724,725,273,274,10163,10164,10165,10163,10163,10164,725,273,18758,18759,18760,18761,10389,273,274,273,274,273,360,273,724,725,726,724,725,726,724,725,726,724,725,726,360,10630,10631,10632,10633,726,724,725,726,724,725,726,724,725,726,724,725,726,724,725,726,724,725,726,724,725,726,724,725,726,724,725,726,724,725,726,724,725,726,724,725,726,724,725,726,724,725,726,724,725,726,724,725,726,724,725,726,724,725,726,724,725,726,724,725,726,
550,551,552,550,551,552,550,551,552,550,551,552,550,551,552,550,551,552,550,551,273,274,10250,10251,10252,10250,10250,10163,10164,10165,18758,18759,18760,18761,10302,360,361,273,274,273,274,360,550,551,552,550,551,552,550,551,552,550,551,552,273,10717,10718,10719,10720,552,550,551,552,550,551,552,550,551,552,550,551,552,550,551,552,550,551,552,550,551,552,550,551,552,550,551,552,550,551,552,550,551,552,550,551,552,550,551,552,550,551,552,550,551,552,550,551,552,550,551,552,550,551,552,550,551,552,550,551,552,
637,638,639,637,638,639,637,638,639,637,638,639,637,638,639,637,638,639,637,638,273,274,10337,10338,10339,10337,10337,10250,10251,10252,18758,18759,18760,18761,10389,273,274,360,361,360,361,360,637,638,639,637,638,639,637,638,639,637,638,639,360,10630,10631,10632,10633,639,637,638,639,637,638,639,637,638,639,637,638,639,637,638,639,637,638,639,637,638,639,637,638,639,637,638,639,637,638,639,637,638,639,637,638,639,637,638,639,637,638,639,637,638,639,637,638,639,637,638,639,637,638,639,637,638,639,637,638,639,
724,725,726,724,725,726,724,725,726,724,725,726,724,725,726,724,725,726,724,725,273,274,10163,10164,10165,10163,10163,10164,10163,273,18758,18759,18760,18761,10302,10163,10164,273,274,273,274,273,724,725,726,724,725,726,724,725,726,724,725,726,273,10717,10718,10719,10720,726,724,725,726,724,725,726,724,725,726,724,725,726,724,725,726,724,725,726,724,725,726,724,725,726,724,725,726,724,725,726,724,725,726,724,725,726,724,725,726,724,725,726,724,725,726,724,725,726,724,725,726,724,725,726,724,725,726,724,725,726,
550,551,552,550,551,552,550,551,552,550,551,552,550,551,552,550,551,552,550,551,273,274,10250,10251,10252,10250,10250,10251,10250,360,18758,18759,18760,18761,10389,10250,10251,273,274,273,274,273,274,273,274,273,274,273,274,273,274,273,274,273,360,10630,10631,10632,10633,552,550,551,552,550,551,552,550,551,552,550,551,552,550,551,552,550,551,552,550,551,552,550,551,552,550,551,552,550,551,552,550,551,552,550,551,552,550,551,552,550,551,552,550,551,552,550,551,552,550,551,552,550,551,552,550,551,552,550,551,552,
637,638,639,637,638,639,637,638,639,637,638,639,637,638,639,637,638,639,637,638,273,274,10337,10338,10339,10337,10337,10338,10337,273,18758,18759,18760,18761,10302,10337,10338,360,361,360,361,360,361,360,361,360,361,360,361,360,361,360,361,360,273,10717,10718,10719,10720,639,637,638,639,637,638,639,637,638,639,637,638,639,637,638,639,637,638,639,637,638,639,637,638,639,637,638,639,637,638,639,637,638,639,637,638,639,637,638,639,637,638,639,637,638,639,637,638,639,637,638,639,637,638,639,637,638,639,637,638,639,
724,725,726,724,725,726,724,725,726,724,725,726,724,725,726,724,725,726,724,725,273,274,10163,10164,10165,10163,10163,10164,10163,360,18758,18759,18760,18761,10389,10163,10164,273,274,273,274,726,724,725,726,724,725,726,724,725,726,724,725,726,360,10630,10631,10632,10633,726,724,725,726,724,725,726,724,725,726,724,725,726,724,725,726,724,725,726,724,725,726,724,725,726,724,725,726,724,725,726,724,725,726,724,725,726,724,725,726,724,725,726,724,725,726,724,725,726,724,725,726,724,725,726,724,725,726,724,725,726,
550,551,552,550,551,552,550,551,552,550,551,552,550,551,552,550,551,552,550,273,274,274,10250,10251,10252,10250,10250,10251,10250,273,18758,18759,18760,18761,10302,10250,10251,360,361,360,361,552,550,551,552,550,551,552,550,551,552,550,551,552,273,10717,10718,10719,10720,552,550,551,552,550,551,552,550,551,552,550,551,552,550,551,552,550,551,552,550,551,552,550,551,552,550,551,552,550,551,552,550,551,552,550,551,552,550,551,552,550,551,552,550,551,552,550,551,552,550,551,552,550,551,552,550,551,552,550,551,552,
637,638,639,637,638,639,637,638,639,637,638,639,637,638,639,637,638,639,637,360,361,361,273,273,273,273,273,273,273,274,18758,18759,18760,18761,10389,273,274,273,273,274,273,639,637,638,639,637,638,639,637,638,639,637,638,639,360,273,274,273,638,639,637,638,639,637,638,639,637,638,639,637,638,639,637,638,639,637,638,639,637,638,639,637,638,639,637,638,639,637,638,639,637,638,639,637,638,639,637,638,639,637,638,639,637,638,639,637,638,639,637,638,639,637,638,639,637,638,639,637,638,639,
724,725,726,724,725,726,724,725,726,724,725,726,724,725,726,724,725,726,724,273,360,361,360,360,360,360,360,360,273,274,18710,18711,18712,18713,10302,360,361,360,360,361,725,726,724,725,726,724,725,726,724,725,726,724,725,726,273,360,361,360,725,726,724,725,726,724,725,726,724,725,726,724,725,726,724,725,726,724,725,726,724,725,726,724,725,726,724,725,726,724,725,726,724,725,726,724,725,726,724,725,726,724,725,726,724,725,726,724,725,726,724,725,726,724,725,726,724,725,726,724,725,726,
550,551,552,550,551,552,550,551,552,550,551,552,550,551,552,550,551,552,550,360,360,361,273,273,273,274,274,274,274,274,18758,18759,18760,18761,10389,273,274,273,274,273,551,552,550,551,552,550,551,552,550,551,552,550,551,552,360,273,274,273,551,552,550,551,552,550,551,552,550,551,552,550,551,552,550,551,552,550,551,552,550,551,552,550,551,552,550,551,552,550,551,552,550,551,552,550,551,552,550,551,552,550,551,552,550,551,552,550,551,552,550,551,552,550,551,552,550,551,552,550,551,552,
637,638,639,637,638,639,637,638,639,637,638,639,637,638,639,637,638,639,637,360,361,360,273,273,274,274,361,361,361,274,18710,18711,18712,18713,10302,360,361,360,361,360,638,639,637,638,639,637,638,639,637,638,639,637,638,639,273,360,361,360,638,639,637,638,639,637,638,639,637,638,639,637,638,639,637,638,639,637,638,639,637,638,639,637,638,639,637,638,639,637,638,639,637,638,639,637,638,639,637,638,639,637,638,639,637,638,639,637,638,639,637,638,639,637,638,639,637,638,639,637,638,639,
724,725,726,724,725,726,724,725,726,724,725,726,724,725,726,724,725,726,724,360,361,273,274,273,274,273,273,274,274,361,18758,18759,18760,18761,10389,273,274,273,274,273,725,726,724,725,726,724,725,726,724,725,726,724,725,726,360,273,274,273,725,726,724,725,726,724,725,726,724,725,726,724,725,726,724,725,726,724,725,726,724,725,726,724,725,726,724,725,726,724,725,726,724,725,726,724,725,726,724,725,726,724,725,726,724,725,726,724,725,726,724,725,726,724,725,726,724,725,726,724,725,726,
550,551,552,550,551,552,550,551,552,550,551,552,550,551,552,550,551,552,550,360,361,273,273,273,274,360,273,274,274,273,18710,18711,18712,18713,10302,360,361,360,361,360,551,552,550,551,552,550,551,552,550,551,552,550,551,552,273,360,361,360,551,552,550,551,552,550,551,552,550,551,552,550,551,552,550,551,552,550,551,552,550,551,552,550,551,552,550,551,552,550,551,552,550,551,552,550,551,552,550,551,552,550,551,552,550,551,552,550,551,552,550,551,552,550,551,552,550,551,552,550,551,552,
637,638,639,637,638,639,637,638,639,637,638,639,637,638,639,637,638,639,637,360,361,274,360,273,273,273,274,274,274,360,18758,18759,18760,18761,10302,273,274,273,274,273,638,639,637,638,639,637,638,639,637,638,639,637,638,639,360,273,274,273,638,639,637,638,639,637,638,639,637,638,639,637,638,639,637,638,639,637,638,639,637,638,639,637,638,639,637,638,639,637,638,639,637,638,639,637,638,639,637,638,639,637,638,639,637,638,639,637,638,639,637,638,639,637,638,639,637,638,639,637,638,639,
724,725,726,724,725,726,724,725,726,724,725,726,724,725,726,724,725,726,724,360,361,361,360,273,360,273,274,361,274,273,18710,18711,18712,18713,10389,360,361,360,274,273,274,273,274,273,274,273,274,273,274,273,274,273,274,273,273,360,361,360,725,726,724,725,726,724,725,726,724,725,726,724,725,726,724,725,726,724,725,726,724,725,726,724,725,726,724,725,726,724,725,726,724,725,726,724,725,726,724,725,726,724,725,726,724,725,726,724,725,726,724,725,726,724,725,726,724,725,726,724,725,726,
550,551,552,550,551,552,550,551,552,550,551,552,550,551,552,550,551,552,550,360,361,361,360,273,360,273,274,273,274,360,18758,18759,18760,18761,10302,273,274,273,361,360,361,360,361,360,361,360,361,360,361,360,361,360,361,360,360,273,274,273,551,552,550,551,552,550,551,552,550,551,552,550,551,552,550,551,552,550,551,552,550,551,552,550,551,552,550,551,552,550,551,552,550,551,552,550,551,552,550,551,552,550,551,552,550,551,552,550,551,552,550,551,552,550,551,552,550,551,552,550,551,552,
637,638,639,637,638,639,637,638,639,637,638,639,637,638,639,637,638,639,637,360,361,361,274,360,273,274,274,273,274,273,18710,18711,18712,18713,10389,360,361,360,274,273,274,273,274,273,274,273,274,273,274,273,274,273,274,273,273,360,361,360,638,639,637,638,639,637,638,639,637,638,639,637,638,639,637,638,639,637,638,639,637,638,639,637,638,639,637,638,639,637,638,639,637,638,639,637,638,639,637,638,639,637,638,639,637,638,639,637,638,639,637,638,639,637,638,639,637,638,639,637,638,639,
724,725,726,724,725,726,724,725,726,724,725,726,724,725,726,724,725,726,724,360,361,360,361,274,273,273,273,273,273,273,274,273,274,274,273,274,274,273,726,724,725,726,724,725,726,724,725,726,724,725,726,724,725,726,360,273,274,273,725,726,724,725,726,724,725,726,724,725,726,724,725,726,724,725,726,724,725,726,724,725,726,724,725,726,724,725,726,724,725,726,724,725,726,724,725,726,724,725,726,724,725,726,724,725,726,724,725,726,724,725,726,724,725,726,724,725,726,724,725,726,
550,551,552,550,551,552,550,551,552,550,551,552,550,551,552,550,551,552,550,360,361,360,361,361,274,274,360,360,360,273,273,273,274,10163,10164,10165,10163,10164,10165,10163,10164,10165,10163,10164,10165,10163,10164,10165,10163,10164,10165,10163,10164,10163,10164,360,361,360,551,552,550,551,552,550,551,552,550,551,552,550,551,552,550,551,552,550,551,552,550,551,552,550,551,552,550,551,552,550,551,552,550,551,552,550,551,552,550,551,552,550,551,552,550,551,552,550,551,552,550,551,552,550,551,552,550,551,552,550,551,552,
637,638,639,637,638,639,637,638,639,637,638,639,637,638,639,637,638,639,637,360,361,274,274,360,361,361,274,274,274,274,274,273,274,10250,10251,10252,10250,10251,10252,10250,10251,10252,10250,10251,10252,10250,10251,10252,10250,10251,10252,10250,10251,10250,10251,273,274,273,638,639,637,638,639,637,638,639,637,638,639,637,638,639,637,638,639,637,638,639,637,638,639,637,638,639,637,638,639,637,638,639,637,638,639,637,638,639,637,638,639,637,638,639,637,638,639,637,638,639,637,638,639,637,638,639,637,638,639,637,638,639,
724,725,726,724,725,726,724,725,726,724,725,726,724,725,726,724,725,726,724,360,361,273,273,273,360,361,361,361,361,361,361,274,274,10337,10338,10339,10337,10338,10339,10337,10338,10339,10337,10338,10339,10337,10338,10339,10337,10338,10339,10337,10338,10337,10338,360,361,724,725,726,724,725,726,724,725,726,724,725,726,724,725,726,724,725,726,724,725,726,724,725,726,724,725,726,724,725,726,724,725,726,724,725,726,724,725,726,724,725,726,724,725,726,724,725,726,724,725,726,724,725,726,724,725,726,724,725,726,724,725,726,
550,551,552,550,551,552,550,551,552,550,551,552,550,551,552,550,551,552,550,551,360,360,360,360,360,360,360,360,360,361,361,361,361,550,551,552,550,551,552,550,551,552,550,551,552,550,551,552,550,551,552,550,551,552,550,273,274,550,551,552,550,551,552,550,551,552,550,551,552,550,551,552,550,551,552,550,551,552,550,551,552,550,551,552,550,551,552,550,551,552,550,551,552,550,551,552,550,551,552,550,551,552,550,551,552,550,551,552,550,551,552,550,551,552,550,551,552,550,551,552,
637,638,639,637,638,639,637,638,639,637,638,639,637,638,639,637,638,639,637,638,639,637,638,639,637,638,639,637,638,639,637,638,639,637,638,639,637,638,639,637,638,639,637,638,639,637,638,639,637,638,639,637,638,639,637,360,361,637,638,639,637,638,639,637,638,639,637,638,639,637,638,639,637,638,639,637,638,639,637,638,639,637,638,639,637,638,639,637,638,639,637,638,639,637,638,639,637,638,639,637,638,639,637,638,639,637,638,639,637,638,639,637,638,639,637,638,639,637,638,639,
724,725,726,724,725,726,724,725,726,724,725,726,724,725,726,724,725,726,724,725,726,724,725,726,724,725,726,724,725,726,724,725,726,724,725,726,724,725,726,724,725,726,724,725,726,724,725,726,724,725,726,724,725,726,724,725,726,724,725,726,724,725,726,724,725,726,724,725,726,724,725,726,724,725,726,724,725,726,724,725,726,724,725,726,724,725,726,724,725,726,724,725,726,724,725,726,724,725,726,724,725,726,724,725,726,724,725,726,724,725,726,724,725,726,724,725,726,724,725,726,
550,551,552,550,551,552,550,551,552,550,551,552,550,551,552,550,551,552,550,551,552,550,551,552,550,551,552,550,551,552,550,551,552,550,551,552,550,551,552,550,551,552,550,551,552,550,551,552,550,551,552,550,551,552,550,551,552,550,551,552,550,551,552,550,551,552,550,551,552,550,551,552,550,551,552,550,551,552,550,551,552,550,551,552,550,551,552,550,551,552,550,551,552,550,551,552,550,551,552,550,551,552,550,551,552,550,551,552,550,551,552,550,551,552,550,551,552,550,551,552,
637,638,639,637,638,639,637,638,639,637,638,639,637,638,639,637,638,639,637,638,639,637,638,639,637,638,639,637,638,639,637,638,639,637,638,639,637,638,639,637,638,639,637,638,639,637,638,639,637,638,639,637,638,639,637,638,639,637,638,639,637,638,639,637,638,639,637,638,639,637,638,639,637,638,639,637,638,639,637,638,639,637,638,639,637,638,639,637,638,639,637,638,639,637,638,639,637,638,639,637,638,639,637,638,639,637,638,639,637,638,639,637,638,639,637,638,639,637,638,639,
724,725,726,724,725,726,724,725,726,724,725,726,724,725,726,724,725,726,724,725,726,724,725,726,724,725,726,724,725,726,724,725,726,724,725,726,724,725,726,724,725,726,724,725,726,724,725,726,724,725,726,724,725,726,724,725,726,724,725,726,724,725,726,724,725,726,724,725,726,724,725,726,724,725,726,724,725,726,724,725,726,724,725,726,724,725,726,724,725,726,724,725,726,724,725,726,724,725,726,724,725,726,724,725,726,724,725,726,724,725,726,724,725,726,724,725,726,724,725,726,
550,551,552,550,551,552,550,551,552,550,551,552,550,551,552,550,551,552,550,551,552,550,551,552,550,551,552,550,551,552,550,551,552,550,551,552,550,551,552,550,551,552,550,551,552,550,551,552,550,551,552,550,551,552,550,551,552,550,551,552,550,551,552,550,551,552,550,551,552,550,551,552,550,551,552,550,551,552,550,551,552,550,551,552,550,551,552,550,551,552,550,551,552,550,551,552,550,551,552,550,551,552,550,551,552,550,551,552,550,551,552,550,551,552,550,551,552,550,551,552,
637,638,639,637,638,639,637,638,639,637,638,639,637,638,639,637,638,639,637,638,639,637,638,639,637,638,639,637,638,639,637,638,639,637,638,639,637,638,639,637,638,639,637,638,639,637,638,639,637,638,639,637,638,639,637,638,639,637,638,639,637,638,639,637,638,639,637,638,639,637,638,639,637,638,639,637,638,639,637,638,639,637,638,639,637,638,639,637,638,639,637,638,639,637,638,639,637,638,639,637,638,639,637,638,639,637,638,639,637,638,639,637,638,639,637,638,639,637,638,639,
724,725,726,724,725,726,724,725,726,724,725,726,724,725,726,724,725,726,724,725,726,724,725,726,724,725,726,724,725,726,724,725,726,724,725,726,724,725,726,724,725,726,724,725,726,724,725,726,724,725,726,724,725,726,724,725,726,724,725,726,724,725,726,724,725,726,724,725,726,724,725,726,724,725,726,724,725,726,724,725,726,724,725,726,724,725,726,724,725,726,724,725,726,724,725,726,724,725,726,724,725,726,724,725,726,724,725,726,724,725,726,724,725,726,724,725,726,724,725,726,
550,551,552,550,551,552,550,551,552,550,551,552,550,551,552,550,551,552,550,551,552,550,551,552,550,551,552,550,551,552,550,551,552,550,551,552,550,551,552,550,551,552,550,551,552,550,551,552,550,551,552,550,551,552,550,551,552,550,551,552,550,551,552,550,551,552,550,551,552,550,551,552,550,551,552,550,551,552,550,551,552,550,551,552,550,551,552,550,551,552,550,551,552,550,551,552,550,551,552,550,551,552,550,551,552,550,551,552,550,551,552,550,551,552,550,551,552,550,551,552,
637,638,639,637,638,639,637,638,639,637,638,639,637,638,639,637,638,639,637,638,639,637,638,639,637,638,639,637,638,639,637,638,639,637,638,639,637,638,639,637,638,639,637,638,639,637,638,639,637,638,639,637,638,639,637,638,639,637,638,639,637,638,639,637,638,639,637,638,639,637,638,639,637,638,639,637,638,639,637,638,639,637,638,639,637,638,639,637,638,639,637,638,639,637,638,639,637,638,639,637,638,639,637,638,639,637,638,639,637,638,639,637,638,639,637,638,639,637,638,639,
724,725,726,724,725,726,724,725,726,724,725,726,724,725,726,724,725,726,724,725,726,724,725,726,724,725,726,724,725,726,724,725,726,724,725,726,724,725,726,724,725,726,724,725,726,724,725,726,724,725,726,724,725,726,724,725,726,724,725,726,724,725,726,724,725,726,724,725,726,724,725,726,724,725,726,724,725,726,724,725,726,724,725,726,724,725,726,724,725,726,724,725,726,724,725,726,724,725,726,724,725,726,724,725,726,724,725,726,724,725,726,724,725,726,724,725,726,724,725,726,
550,551,552,550,551,552,550,551,552,550,551,552,550,551,552,550,551,552,550,551,552,550,551,552,550,551,552,550,551,552,550,551,552,550,551,552,550,551,552,550,551,552,550,551,552,550,551,552,550,551,552,550,551,552,550,551,552,550,551,552,550,551,552,550,551,552,550,551,552,550,551,552,550,551,552,550,551,552,550,551,552,550,551,552,550,551,552,550,551,552,550,551,552,550,551,552,550,551,552,550,551,552,550,551,552,550,551,552,550,551,552,550,551,552,550,551,552,550,551,552,
637,638,639,637,638,639,637,638,639,637,638,639,637,638,639,637,638,639,637,638,639,637,638,639,637,638,639,637,638,639,637,638,639,637,638,639,637,638,639,637,638,639,637,638,639,637,638,639,637,638,639,637,638,639,637,638,639,637,638,639,637,638,639,637,638,639,637,638,639,637,638,639,637,638,639,637,638,639,637,638,639,637,638,639,637,638,639,637,638,639,637,638,639,637,638,639,637,638,639,637,638,639,637,638,639,637,638,639,637,638,639,637,638,639,637,638,639,637,638,639,
724,725,726,724,725,726,724,725,726,724,725,726,724,725,726,724,725,726,724,725,726,724,725,726,724,725,726,724,725,726,724,725,726,724,725,726,724,725,726,724,725,726,724,725,726,724,725,726,724,725,726,724,725,726,724,725,726,724,725,726,724,725,726,724,725,726,724,725,726,724,725,726,724,725,726,724,725,726,724,725,726,724,725,726,724,725,726,724,725,726,724,725,726,724,725,726,724,725,726,724,725,726,724,725,726,724,725,726,724,725,726,724,725,726,724,725,726,724,725,726,
550,551,552,550,551,552,550,551,552,550,551,552,550,551,552,550,551,552,550,551,552,550,551,552,550,551,552,550,551,552,550,551,552,550,551,552,550,551,552,550,551,552,550,551,552,550,551,552,550,551,552,550,551,552,550,551,552,550,551,552,550,551,552,550,551,552,550,551,552,550,551,552,550,551,552,550,551,552,550,551,552,550,551,552,550,551,552,550,551,552,550,551,552,550,551,552,550,551,552,550,551,552,550,551,552,550,551,552,550,551,552,550,551,552,550,551,552,550,551,552
</data>
 </layer>
 <layer id="5" name="ground" width="120" height="100">
  <data encoding="csv">
0,0,0,0,0,0,0,0,0,0,0,0,0,0,0,0,0,0,0,0,0,0,0,0,0,0,0,0,0,0,0,0,0,0,0,0,0,0,0,0,0,0,0,0,0,0,0,0,0,0,0,0,0,0,0,0,0,0,0,0,0,0,0,0,0,0,0,0,0,0,0,0,0,0,0,0,0,0,0,0,0,0,0,0,0,0,0,0,0,0,0,0,0,0,0,0,0,0,0,0,0,0,0,0,0,0,0,0,0,0,0,0,0,0,0,0,0,0,0,0,
0,0,0,0,0,0,0,0,0,0,0,0,0,0,0,0,0,0,0,0,0,0,0,0,0,0,0,0,0,0,0,0,0,0,0,0,0,0,0,0,0,0,0,0,0,0,0,0,0,0,0,0,0,0,0,0,0,0,0,0,0,0,0,0,0,0,0,0,0,0,0,0,0,0,0,0,0,0,0,0,0,0,0,0,0,0,0,0,0,0,0,0,0,0,0,0,0,0,0,0,0,0,0,0,0,0,0,0,0,0,0,0,0,0,0,0,0,0,0,0,
0,0,0,0,0,0,0,0,0,0,0,0,0,0,0,0,0,0,0,0,0,0,0,0,0,0,0,0,0,0,0,0,0,0,0,0,0,0,0,0,0,0,0,0,0,0,0,0,0,0,0,0,0,0,0,0,0,0,0,0,0,0,0,0,0,0,0,0,0,0,0,0,0,0,0,0,0,0,0,0,0,0,0,0,0,0,0,0,0,0,0,0,0,0,0,0,0,0,0,0,0,0,0,0,0,0,0,0,0,0,0,0,0,0,0,0,0,0,0,0,
0,0,0,0,0,0,0,0,0,0,0,0,0,0,0,0,0,0,0,0,0,0,0,0,0,0,0,0,0,0,0,0,0,0,0,0,0,0,0,0,0,0,0,0,0,0,0,0,0,0,0,0,0,0,0,0,0,0,0,0,0,0,0,0,0,0,0,0,0,0,0,0,0,0,0,0,0,0,0,0,0,0,0,0,0,0,0,0,0,0,0,0,0,0,0,0,0,0,0,0,0,0,0,0,0,0,0,0,0,0,0,0,0,0,0,0,0,0,0,0,
0,0,0,0,0,0,0,0,0,0,0,0,0,0,0,0,0,0,0,0,0,0,0,0,0,0,0,0,0,0,0,0,0,0,0,0,0,0,0,0,0,0,0,0,0,0,0,0,0,0,0,0,0,0,0,0,0,0,0,0,0,0,0,0,0,0,0,0,0,0,0,0,0,0,0,0,0,0,0,0,0,0,0,0,0,0,0,0,0,0,0,0,0,0,0,0,0,0,0,0,0,0,0,0,0,0,0,0,0,0,0,0,0,0,0,0,0,0,0,0,
0,0,0,0,0,0,0,0,0,0,0,0,0,0,0,0,0,0,0,0,0,0,0,0,0,0,0,0,0,0,0,0,0,0,0,0,0,0,0,0,0,0,0,0,0,0,0,0,0,0,0,0,0,0,0,0,0,0,0,0,0,0,0,0,0,0,0,0,0,0,0,0,0,0,0,0,0,0,0,0,0,0,0,0,0,0,0,0,0,0,0,0,0,0,0,0,0,0,0,0,0,0,0,0,0,0,0,0,0,0,0,0,0,0,0,0,0,0,0,0,
0,0,0,0,0,0,0,0,0,0,0,0,0,0,0,0,0,0,0,0,0,0,0,0,0,0,0,0,0,0,0,0,0,0,0,0,0,0,0,0,0,0,0,0,0,0,0,0,0,0,0,0,0,0,0,0,0,0,0,0,0,0,0,0,0,0,0,0,0,0,0,0,0,0,0,0,0,0,0,0,0,0,0,0,0,0,0,0,0,0,0,0,0,0,0,0,0,0,0,0,0,0,0,0,0,0,0,0,0,0,0,0,0,0,0,0,0,0,0,0,
0,0,0,0,0,0,0,0,0,0,0,0,0,0,0,0,0,0,0,0,0,0,0,0,0,0,0,0,0,0,0,0,0,0,0,0,0,0,0,0,0,0,0,0,0,0,0,0,0,0,0,0,0,0,0,0,0,0,0,0,0,0,0,0,0,0,0,0,0,0,0,0,0,0,0,0,0,0,0,0,0,0,0,0,0,0,0,0,0,0,0,0,0,0,0,0,0,0,0,0,0,0,0,0,0,0,0,0,0,0,0,0,0,0,0,0,0,0,0,0,
0,0,0,0,0,0,0,0,0,0,0,0,0,0,0,0,0,0,0,0,0,0,0,0,0,0,0,0,0,0,0,0,0,0,0,0,0,0,0,0,0,0,0,0,0,0,0,0,0,0,0,0,0,0,0,0,0,0,0,0,0,0,0,0,0,0,0,0,0,0,0,0,0,0,0,0,0,0,0,0,0,0,0,0,0,0,0,0,0,0,0,0,0,0,0,0,0,0,0,0,0,0,0,0,0,0,0,0,0,0,0,0,0,0,0,0,0,0,0,0,
0,0,0,0,0,0,0,0,0,0,0,0,0,0,0,0,0,0,0,0,0,0,0,0,0,0,0,0,0,0,0,0,0,0,0,0,0,0,0,0,0,0,0,0,0,0,0,0,0,0,0,0,0,0,0,0,0,0,0,0,0,0,0,0,0,0,0,0,0,0,0,0,0,0,0,0,0,0,0,0,0,0,0,0,0,0,0,0,0,0,0,0,0,0,0,0,0,0,0,0,0,0,0,0,0,0,0,0,0,0,0,0,0,0,0,0,0,0,0,0,
0,0,0,0,0,0,0,0,0,0,0,0,0,0,0,0,0,0,0,0,0,0,0,0,0,0,0,0,0,0,0,0,0,0,0,0,0,0,0,0,0,0,0,0,0,0,0,0,0,0,0,0,0,0,0,0,0,0,0,0,0,0,0,0,0,0,0,0,0,0,0,0,0,0,0,0,0,0,0,0,0,0,0,0,0,0,0,0,0,0,0,0,0,0,0,0,0,0,0,0,0,0,0,0,0,0,0,0,0,0,0,0,0,0,0,0,0,0,0,0,
0,0,0,0,0,0,0,0,0,0,0,0,0,0,0,0,0,0,0,0,0,0,0,0,0,0,0,0,0,0,0,0,0,0,0,0,0,0,0,0,0,0,0,0,0,0,0,0,0,0,0,0,0,0,0,0,0,0,0,0,0,0,0,0,0,0,0,0,0,0,0,0,0,0,0,0,0,0,0,0,0,0,0,0,0,0,0,0,0,0,0,0,0,0,0,0,0,0,0,0,0,0,0,0,0,0,0,0,0,0,0,0,0,0,0,0,0,0,0,0,
0,0,0,0,0,0,0,0,0,0,0,0,0,0,0,0,0,0,0,0,0,0,0,0,0,0,0,0,0,0,0,0,0,0,0,0,0,0,0,0,0,0,0,0,0,0,0,0,0,0,0,0,0,0,0,0,0,0,0,0,0,0,0,0,0,0,0,0,0,0,0,0,0,0,0,0,0,0,0,0,0,0,0,0,0,0,0,0,0,0,0,0,0,0,0,0,0,0,0,0,0,0,0,0,0,0,0,0,0,0,0,0,0,0,0,0,0,0,0,0,
0,0,0,0,0,0,0,0,0,0,0,0,0,0,0,0,0,0,0,0,0,0,0,0,0,0,0,0,0,0,0,0,0,0,0,0,0,0,0,0,0,0,0,0,0,0,0,0,0,0,0,0,0,0,0,0,0,0,0,0,0,0,0,0,0,0,0,0,0,0,0,0,0,0,0,0,0,0,0,0,0,0,0,0,0,0,0,0,0,0,0,0,0,0,0,0,0,0,0,0,0,0,0,0,0,0,0,0,0,0,0,0,0,0,0,0,0,0,0,0,
0,0,0,0,0,0,0,0,0,0,0,0,0,0,0,0,0,0,0,0,0,0,0,0,0,0,0,0,0,0,0,0,0,0,0,0,0,0,0,0,0,0,0,0,0,0,0,0,0,0,0,0,0,0,0,0,0,0,0,0,0,0,0,0,0,0,0,0,0,0,0,0,0,0,0,0,0,0,0,0,0,0,0,0,0,0,0,0,0,0,0,0,0,0,0,0,0,0,0,0,0,0,0,0,0,0,0,0,0,0,0,0,0,0,0,0,0,0,0,0,
0,0,0,0,0,0,0,0,0,0,0,0,0,0,0,0,0,0,0,0,0,0,0,0,0,0,0,0,0,0,0,0,0,0,0,0,0,0,0,0,0,0,0,0,0,0,0,0,0,0,0,0,0,0,0,0,0,0,0,0,0,0,0,0,0,0,0,0,0,0,0,0,0,0,0,0,0,0,0,0,0,0,0,0,0,0,0,0,0,0,0,0,0,0,0,0,0,0,0,0,0,0,0,0,0,0,0,0,0,0,0,0,0,0,0,0,0,0,0,0,
0,0,0,0,0,0,0,0,0,0,0,0,0,0,0,0,0,0,0,0,0,0,0,0,0,0,0,0,0,0,0,0,0,0,0,0,0,0,0,0,0,0,0,0,0,0,0,0,0,0,0,0,0,0,0,0,0,0,0,0,0,0,0,0,0,0,0,0,0,0,0,0,0,0,0,0,0,0,0,0,0,0,0,0,0,0,0,0,0,0,0,0,0,0,0,0,0,0,0,0,0,0,0,0,0,0,0,0,0,0,0,0,0,0,0,0,0,0,0,0,
0,0,0,0,0,0,0,0,0,0,0,0,0,0,0,0,0,0,0,0,0,0,0,0,0,0,0,0,0,0,0,0,0,0,0,0,0,0,0,0,0,0,0,0,0,0,0,0,0,0,0,0,0,0,0,0,0,0,0,0,0,0,0,0,0,0,0,0,0,0,0,0,0,0,0,0,0,0,0,0,0,0,0,0,0,0,0,0,0,0,0,0,0,0,0,0,0,0,0,0,0,0,0,0,0,0,0,0,0,0,0,0,0,0,0,0,0,0,0,0,
0,0,0,0,0,0,0,0,0,0,0,0,0,0,0,0,0,0,0,0,0,0,0,0,0,0,0,0,0,0,0,0,0,0,0,0,0,0,0,0,0,0,0,0,0,0,0,0,0,0,0,0,0,0,0,0,0,0,0,0,0,0,0,0,0,0,0,0,0,0,0,0,0,0,0,0,0,0,0,0,0,0,0,0,0,0,0,0,0,0,0,0,0,0,0,0,0,0,0,0,0,0,0,0,0,0,0,0,0,0,0,0,0,0,0,0,0,0,0,0,
0,0,0,0,0,0,0,0,0,0,0,0,0,0,0,0,0,0,0,0,0,0,0,0,0,0,0,0,0,0,0,0,0,0,0,0,0,0,0,0,0,0,0,0,0,0,0,0,0,0,0,0,0,0,0,0,0,0,0,0,0,0,0,0,0,0,0,0,0,0,0,0,0,0,0,0,0,0,0,0,0,0,0,0,0,0,0,0,0,0,0,0,0,0,0,0,0,0,0,0,0,0,0,0,0,0,0,0,0,0,0,0,0,0,0,0,0,0,0,0,
0,0,0,0,0,0,0,0,0,0,0,0,0,0,0,0,0,0,0,0,0,0,0,0,0,0,0,0,0,0,0,0,0,0,0,0,0,0,0,0,0,0,0,0,0,0,0,0,0,0,0,0,0,0,0,0,0,0,0,0,0,0,0,0,0,0,0,0,0,0,0,0,0,0,0,0,0,0,0,0,0,0,0,0,0,0,0,0,0,0,0,0,0,0,0,0,0,0,0,0,0,0,0,0,0,0,0,0,0,0,0,0,0,0,0,0,0,0,0,0,
0,0,0,0,0,0,0,0,0,0,0,0,0,0,0,0,0,0,0,0,0,0,0,0,0,0,0,0,0,0,0,0,0,0,0,0,0,0,0,0,0,0,0,0,0,0,0,0,0,0,0,0,0,0,0,0,0,0,0,0,0,0,0,0,0,0,0,0,0,0,0,0,0,0,0,0,0,0,0,0,0,0,0,0,0,0,0,0,0,0,0,0,0,0,0,0,0,0,0,0,0,0,0,0,0,0,0,0,0,0,0,0,0,0,0,0,0,0,0,0,
0,0,0,0,0,0,0,0,0,0,0,0,0,0,0,0,0,0,0,0,0,0,0,0,0,0,0,0,0,0,0,0,0,0,0,0,0,0,0,0,0,0,0,0,0,0,0,0,0,0,0,0,0,0,0,0,0,0,0,0,0,0,0,0,0,0,0,0,0,0,0,0,0,0,0,0,0,0,0,0,0,0,0,0,0,0,0,0,0,0,0,0,0,0,0,0,0,0,0,0,0,0,0,0,0,0,0,0,0,0,0,0,0,0,0,0,0,0,0,0,
0,0,0,0,0,0,0,0,0,0,0,0,0,0,0,0,0,0,0,0,0,0,0,0,0,0,0,0,0,0,0,0,0,0,0,0,0,0,0,0,0,0,0,0,0,0,0,0,0,0,0,0,0,0,0,0,0,0,0,0,0,0,0,0,0,0,0,0,0,0,0,0,0,0,0,0,0,0,0,0,0,0,0,0,0,0,0,0,0,0,0,0,0,0,0,0,0,0,0,0,0,0,0,0,0,0,0,0,0,0,0,0,0,0,0,0,0,0,0,0,
0,0,0,0,0,0,0,0,0,0,0,0,0,0,0,0,0,0,0,0,0,0,0,0,0,0,0,0,0,0,0,0,0,0,0,0,0,0,0,0,0,0,0,0,0,0,0,0,0,0,0,0,0,0,0,0,0,0,0,0,0,0,0,0,0,0,0,0,0,0,0,0,0,0,0,0,0,0,0,0,0,0,0,0,0,0,0,0,0,0,0,0,0,0,0,0,0,0,0,0,0,0,0,0,0,0,0,0,0,0,0,0,0,0,0,0,0,0,0,0,
0,0,0,0,0,0,0,0,0,0,0,0,0,0,0,0,0,0,0,0,0,0,0,0,0,0,0,0,0,0,0,0,0,0,0,0,0,0,0,0,0,0,0,0,0,0,0,0,0,0,0,0,0,0,0,0,0,0,0,0,0,0,0,0,0,0,0,0,0,0,0,0,0,0,0,0,0,0,0,0,0,0,0,0,0,0,0,0,0,0,0,0,0,0,0,0,0,0,0,0,0,0,0,0,0,0,0,0,0,0,0,0,0,0,0,0,0,0,0,0,
0,0,0,0,0,0,0,0,0,0,0,0,0,0,0,0,0,0,0,0,0,0,0,0,0,0,0,0,0,0,0,0,0,0,0,0,0,0,0,0,0,0,0,0,0,0,0,0,0,0,0,0,0,0,0,0,0,0,0,0,0,0,0,0,0,0,0,0,0,0,0,0,0,0,0,0,0,0,0,0,0,0,0,0,0,0,0,0,0,0,0,0,0,0,0,0,0,0,0,0,0,0,0,0,0,0,0,0,0,0,0,0,0,0,0,0,0,0,0,0,
0,0,0,0,0,0,0,0,0,0,0,0,0,0,0,0,0,0,0,0,0,0,0,0,0,0,0,0,0,0,0,0,0,0,0,0,0,0,0,0,0,0,0,0,0,0,0,0,0,0,0,0,0,0,0,0,0,0,0,0,0,0,0,0,0,0,0,0,0,0,0,0,0,0,0,0,0,0,0,0,0,0,0,0,0,0,0,0,0,0,0,0,0,0,0,0,0,0,0,0,0,0,0,0,0,0,0,0,0,0,0,0,0,0,0,0,0,0,0,0,
0,0,0,0,0,0,0,0,0,0,0,0,0,0,0,0,0,0,0,0,0,0,0,0,0,0,0,0,0,0,0,0,0,0,0,0,0,0,0,0,0,0,0,0,0,0,0,0,0,0,0,0,0,0,0,0,0,0,0,0,0,0,0,0,0,0,0,0,0,0,0,0,0,0,0,0,0,0,0,0,0,0,0,0,0,0,0,0,0,0,0,0,0,0,0,0,0,0,0,0,0,0,0,0,0,0,0,0,0,0,0,0,0,0,0,0,0,0,0,0,
0,0,0,0,0,0,0,0,0,0,0,0,0,0,0,0,0,0,0,0,0,0,0,0,0,0,0,0,0,0,0,0,0,0,0,0,0,0,0,0,0,0,0,0,0,0,0,0,0,0,0,0,0,0,0,0,0,0,0,0,0,0,0,0,0,0,0,0,0,0,0,0,0,0,0,0,0,0,0,0,0,0,0,0,0,0,0,0,0,0,0,0,0,0,0,0,0,0,0,0,0,0,0,0,0,0,0,0,0,0,0,0,0,0,0,0,0,0,0,0,
0,0,0,0,0,0,0,0,0,0,0,0,0,0,0,0,0,0,0,0,0,0,0,0,0,0,0,0,0,0,0,0,0,0,0,0,0,0,0,0,0,0,0,0,0,0,0,0,0,0,0,0,0,0,0,0,0,0,0,0,0,0,0,0,0,0,0,0,0,0,0,0,0,0,0,0,0,0,0,0,0,0,0,0,0,0,0,0,0,0,0,0,0,0,0,0,0,0,0,0,0,0,0,0,0,0,0,0,0,0,0,0,0,0,0,0,0,0,0,0,
0,0,0,0,0,0,0,0,0,0,0,0,0,0,0,0,0,0,0,0,0,0,0,0,0,0,0,0,0,0,0,0,0,0,0,0,0,0,0,0,0,0,0,0,0,0,0,0,0,0,0,0,0,0,0,0,0,0,0,0,0,0,0,0,0,0,0,0,0,0,0,0,0,0,0,0,0,0,0,0,0,0,0,0,0,0,0,0,0,0,0,0,0,0,0,0,0,0,0,0,0,0,0,0,0,0,0,0,0,0,0,0,0,0,0,0,0,0,0,0,
0,0,0,0,0,0,0,0,0,0,0,0,0,0,0,0,0,0,0,0,0,0,0,0,0,0,0,0,0,0,0,0,0,0,0,0,0,0,0,0,0,0,0,0,0,0,0,0,0,0,0,0,0,0,0,0,0,0,0,0,0,0,0,0,0,0,0,0,0,0,0,0,0,0,0,0,0,0,0,0,0,0,0,0,0,0,0,0,0,0,0,0,0,0,0,0,0,0,0,0,0,0,0,0,0,0,0,0,0,0,0,0,0,0,0,0,0,0,0,0,
0,0,0,0,0,0,0,0,0,0,0,0,0,0,0,0,0,0,0,0,0,0,0,0,0,0,0,0,0,0,0,0,0,0,0,0,0,0,0,0,0,0,0,0,0,0,0,0,0,0,0,0,0,0,0,0,0,0,0,0,0,0,0,0,0,0,0,0,0,0,0,0,0,0,0,0,0,0,0,0,0,0,0,0,0,0,0,0,0,0,0,0,0,0,0,0,0,0,0,0,0,0,0,0,0,0,0,0,0,0,0,0,0,0,0,0,0,0,0,0,
0,0,0,0,0,0,0,0,0,0,0,0,0,0,0,0,0,0,0,0,0,0,0,0,0,0,0,0,0,0,0,0,0,0,0,0,0,0,0,0,0,0,0,0,0,0,0,0,0,0,0,0,0,0,0,0,0,0,0,0,0,0,0,0,0,0,0,0,0,0,0,0,0,0,0,0,0,0,0,0,0,0,0,0,0,0,0,0,0,0,0,0,0,0,0,0,0,0,0,0,0,0,0,0,0,0,0,0,0,0,0,0,0,0,0,0,0,0,0,0,
0,0,0,0,0,0,0,0,0,0,0,0,0,0,0,0,0,0,0,0,0,0,0,0,0,0,0,0,0,0,0,0,0,0,0,0,0,0,0,0,0,0,0,0,0,0,0,0,0,0,0,0,0,0,0,0,0,0,0,0,0,0,0,0,0,0,0,0,0,0,0,0,0,0,0,0,0,0,0,0,0,0,0,0,0,0,0,0,0,0,0,0,0,0,0,0,0,0,0,0,0,0,0,0,0,0,0,0,0,0,0,0,0,0,0,0,0,0,0,0,
0,0,0,0,0,0,0,0,0,0,0,0,0,0,0,0,0,0,0,0,0,0,0,0,0,0,0,0,0,0,0,0,0,0,0,0,0,0,0,0,0,0,0,0,0,0,0,0,0,0,0,0,0,0,0,0,0,0,0,0,0,0,0,0,0,0,0,0,0,0,0,0,0,0,0,0,0,0,0,0,0,0,0,0,0,0,0,0,0,0,0,0,0,0,0,0,0,0,0,0,0,0,0,0,0,0,0,0,0,0,0,0,0,0,0,0,0,0,0,0,
0,0,0,0,0,0,0,0,0,0,0,0,0,0,0,0,0,0,0,0,0,0,0,0,0,0,0,0,0,0,0,0,0,0,0,0,0,0,0,0,0,0,0,0,0,0,0,0,0,0,0,0,0,0,0,0,0,0,0,0,0,0,0,0,0,0,0,0,0,0,0,0,0,0,0,0,0,0,0,0,0,0,0,0,0,0,0,0,0,0,0,0,0,0,0,0,0,0,0,0,0,0,0,0,0,0,0,0,0,0,0,0,0,0,0,0,0,0,0,0,
0,0,0,0,0,0,0,0,0,0,0,0,0,0,0,0,0,0,0,0,0,0,0,0,0,0,0,0,0,0,0,0,0,0,0,0,0,0,0,0,0,0,0,0,0,0,0,0,0,0,0,0,0,0,0,0,0,0,0,0,0,0,0,0,0,0,0,0,0,0,0,0,0,0,0,0,0,0,0,0,0,0,0,0,0,0,0,0,0,0,0,0,0,0,0,0,0,0,0,0,0,0,0,0,0,0,0,0,0,0,0,0,0,0,0,0,0,0,0,0,
0,0,0,0,0,0,0,0,0,0,0,0,0,0,0,0,0,0,0,0,0,0,0,0,0,0,0,0,0,0,0,0,0,0,0,0,0,0,0,0,0,0,0,0,0,0,0,0,0,0,0,0,0,0,0,0,0,0,0,0,0,0,0,0,0,0,0,0,0,0,0,0,0,0,0,0,0,0,0,0,0,0,0,0,0,0,0,0,0,0,0,0,0,0,0,0,0,0,0,0,0,0,0,0,0,0,0,0,0,0,0,0,0,0,0,0,0,0,0,0,
0,0,0,0,0,0,0,0,0,0,0,0,0,0,0,0,0,0,0,0,0,0,0,0,0,0,0,0,0,0,0,0,0,0,0,0,0,0,0,0,0,0,0,0,0,0,0,0,0,0,0,0,0,0,0,0,0,0,0,0,0,0,0,0,0,0,0,0,0,0,0,0,0,0,0,0,0,0,0,0,0,0,0,0,0,0,0,0,0,0,0,0,0,0,0,0,0,0,0,0,0,0,0,0,0,0,0,0,0,0,0,0,0,0,0,0,0,0,0,0,
0,0,0,0,0,0,0,0,0,0,0,0,0,0,0,0,0,0,0,0,0,0,0,0,0,0,0,0,0,0,0,0,0,0,0,0,0,0,0,0,0,0,0,0,0,0,0,0,0,0,0,0,0,0,0,0,0,0,0,0,0,0,0,0,0,0,0,0,0,0,0,0,0,0,0,0,0,0,0,0,0,0,0,0,0,0,0,0,0,0,0,0,0,0,0,0,0,0,0,0,0,0,0,0,0,0,0,0,0,0,0,0,0,0,0,0,0,0,0,0,
0,0,0,0,0,0,0,0,0,0,0,0,0,0,0,0,0,0,0,0,0,0,0,0,0,0,0,0,0,0,0,0,0,0,0,0,0,0,0,0,0,0,0,0,0,0,0,0,0,0,0,0,0,0,0,0,0,0,0,0,0,0,0,0,0,0,0,0,0,0,0,0,0,0,0,0,0,0,0,0,0,0,0,0,0,0,0,0,0,0,0,0,0,0,0,0,0,0,0,0,0,0,0,0,0,0,0,0,0,0,0,0,0,0,0,0,0,0,0,0,
0,0,0,0,0,0,0,0,0,0,0,0,0,0,0,0,0,0,0,0,0,0,0,0,0,0,0,0,0,0,0,0,0,0,0,0,0,0,0,0,0,0,0,0,0,0,0,0,0,0,0,0,0,0,0,0,0,0,0,0,0,0,0,0,0,0,0,0,0,0,0,0,0,0,0,0,0,0,0,0,0,0,0,0,0,0,0,0,0,0,0,0,0,0,0,0,0,0,0,0,0,0,0,0,0,0,0,0,0,0,0,0,0,0,0,0,0,0,0,0,
0,0,0,0,0,0,0,0,0,0,0,0,0,0,0,0,0,0,0,0,0,0,0,0,0,0,0,0,0,0,0,0,0,0,0,0,0,0,0,0,0,0,0,0,0,0,0,0,0,0,0,0,0,0,0,0,0,0,0,0,0,0,0,0,0,0,0,0,0,0,0,0,0,0,0,0,0,0,0,0,0,0,0,0,0,0,0,0,0,0,0,0,0,0,0,0,0,0,0,0,0,0,0,0,0,0,0,0,0,0,0,0,0,0,0,0,0,0,0,0,
0,0,0,0,0,0,0,0,0,0,0,0,0,0,0,0,0,0,0,0,0,0,0,0,0,0,0,0,0,0,0,0,0,0,0,0,0,0,0,0,0,0,0,0,0,0,0,0,0,0,0,0,0,0,0,0,0,0,0,0,0,0,0,0,0,0,0,0,0,0,0,0,0,0,0,0,0,0,0,0,0,0,0,0,0,0,0,0,0,0,0,0,0,0,0,0,0,0,0,0,0,0,0,0,0,0,0,0,0,0,0,0,0,0,0,0,0,0,0,0,
0,0,0,0,0,0,0,0,0,0,0,0,0,0,0,0,0,0,0,0,0,0,0,0,0,0,0,0,0,0,0,0,0,0,0,0,0,0,0,0,0,0,0,0,0,0,0,0,0,0,0,0,0,0,0,0,0,0,0,0,0,0,0,0,0,0,0,0,0,0,0,0,0,0,0,0,0,0,0,0,0,0,0,0,0,0,0,0,0,0,0,0,0,0,0,0,0,0,0,0,0,0,0,0,0,0,0,0,0,0,0,0,0,0,0,0,0,0,0,0,
0,0,0,0,0,0,0,0,0,0,0,0,0,0,0,0,0,0,0,0,0,0,0,0,0,0,0,0,0,0,0,0,0,0,0,0,0,0,0,0,0,0,0,0,0,0,0,0,0,0,0,0,0,0,0,0,0,0,0,0,0,0,0,0,0,0,0,0,0,0,0,0,0,0,0,0,0,0,0,0,0,0,0,0,0,0,0,0,0,0,0,0,0,0,0,0,0,0,0,0,0,0,0,0,0,0,0,0,0,0,0,0,0,0,0,0,0,0,0,0,
0,0,0,0,0,0,0,0,0,0,0,0,0,0,0,0,0,0,0,0,0,0,0,0,0,0,0,0,0,0,0,0,0,0,0,0,0,0,0,0,0,0,0,0,0,0,0,0,0,0,0,0,0,0,0,0,0,0,0,0,0,0,0,0,0,0,0,0,0,0,0,0,0,0,0,0,0,0,0,0,0,0,0,0,0,0,0,0,0,0,0,0,0,0,0,0,0,0,0,0,0,0,0,0,0,0,0,0,0,0,0,0,0,0,0,0,0,0,0,0,
0,0,0,0,0,0,0,0,0,0,0,0,0,0,0,0,0,0,0,0,0,0,0,0,0,0,0,0,0,0,0,0,0,0,0,0,0,0,0,0,0,0,0,0,0,0,0,0,0,0,0,0,0,0,0,0,0,0,0,0,0,0,0,0,0,0,0,0,0,0,0,0,0,0,0,0,0,0,0,0,0,0,0,0,0,0,0,0,0,0,0,0,0,0,0,0,0,0,0,0,0,0,0,0,0,0,0,0,0,0,0,0,0,0,0,0,0,0,0,0,
0,0,0,0,0,0,0,0,0,0,0,0,0,0,0,0,0,0,0,0,0,34576,34577,34576,34577,34576,34577,34576,34577,34576,34577,34576,34577,34576,34577,34576,34577,34576,34577,34576,34577,34576,34577,34576,34577,34576,34577,34576,34577,34576,34577,34576,34577,34576,34577,34576,34577,34576,0,0,0,0,0,0,0,0,0,0,0,0,0,0,0,0,0,0,0,0,0,0,0,0,0,0,0,0,0,0,0,0,0,0,0,0,0,0,0,0,0,0,0,0,0,0,0,0,0,0,0,0,0,0,0,0,0,0,0,0,0,0,
0,0,0,0,0,0,0,0,0,0,0,0,0,0,0,0,0,0,0,0,0,34576,34577,34576,34577,34576,34577,34576,34577,34576,34577,34576,34577,34576,34577,34576,34577,34576,34577,34576,34577,34576,34577,34576,34577,34576,34577,34576,34577,34576,34577,34576,34577,34576,34577,34576,34577,34576,0,0,0,0,0,0,0,0,0,0,0,0,0,0,0,0,0,0,0,0,0,0,0,0,0,0,0,0,0,0,0,0,0,0,0,0,0,0,0,0,0,0,0,0,0,0,0,0,0,0,0,0,0,0,0,0,0,0,0,0,0,0,
0,0,0,0,0,0,0,0,0,0,0,0,0,0,0,0,0,0,0,0,0,34576,34577,34576,34577,34576,34577,34576,34577,34576,34577,34576,34577,34576,34577,34576,34577,34576,34577,34576,34577,34576,34577,34576,34577,34576,34577,34576,34577,34576,34577,34576,34577,34576,34577,34576,34577,34576,0,0,0,0,0,0,0,0,0,0,0,0,0,0,0,0,0,0,0,0,0,0,0,0,0,0,0,0,0,0,0,0,0,0,0,0,0,0,0,0,0,0,0,0,0,0,0,0,0,0,0,0,0,0,0,0,0,0,0,0,0,0,
0,0,0,0,0,0,0,0,0,0,0,0,0,0,0,0,0,0,0,0,0,34576,34577,34576,34577,34576,34577,34576,34577,34576,34577,34576,34577,34576,34577,34576,34577,34576,34577,34576,34577,34576,34577,34576,34577,34576,34577,34576,34577,34576,34577,34576,34577,34576,34577,34576,34577,34576,0,0,0,0,0,0,0,0,0,0,0,0,0,0,0,0,0,0,0,0,0,0,0,0,0,0,0,0,0,0,0,0,0,0,0,0,0,0,0,0,0,0,0,0,0,0,0,0,0,0,0,0,0,0,0,0,0,0,0,0,0,0,
0,0,0,0,0,0,0,0,0,0,0,0,0,0,0,0,0,0,0,0,0,34576,34577,34576,34577,34576,34577,34576,34577,34576,34577,34576,34577,34576,34577,34576,34577,34576,34577,34576,34577,34576,34577,34576,34577,34576,34577,34576,34577,34576,34577,34576,34577,34576,34577,34576,34577,34576,0,0,0,0,0,0,0,0,0,0,0,0,0,0,0,0,0,0,0,0,0,0,0,0,0,0,0,0,0,0,0,0,0,0,0,0,0,0,0,0,0,0,0,0,0,0,0,0,0,0,0,0,0,0,0,0,0,0,0,0,0,0,
0,0,0,0,0,0,0,0,0,0,0,0,0,0,0,0,0,0,0,0,0,34576,34577,34576,34577,34576,34577,34576,34577,34576,34577,34576,34577,34576,34577,34576,34577,34576,34577,34576,34577,34576,34577,34576,34577,34576,34577,34576,34577,34576,34577,34576,34577,34576,34577,34576,34577,34576,0,0,0,0,0,0,0,0,0,0,0,0,0,0,0,0,0,0,0,0,0,0,0,0,0,0,0,0,0,0,0,0,0,0,0,0,0,0,0,0,0,0,0,0,0,0,0,0,0,0,0,0,0,0,0,0,0,0,0,0,0,0,
0,0,0,0,0,0,0,0,0,0,0,0,0,0,0,0,0,0,0,0,0,34576,34577,34576,34577,34576,34577,34576,34577,34576,34577,34576,34577,34576,34577,34576,34577,34576,34577,34576,34577,34576,34577,34576,34577,34576,34577,34576,34577,34576,34577,34576,34577,34576,34577,34576,34577,34576,0,0,0,0,0,0,0,0,0,0,0,0,0,0,0,0,0,0,0,0,0,0,0,0,0,0,0,0,0,0,0,0,0,0,0,0,0,0,0,0,0,0,0,0,0,0,0,0,0,0,0,0,0,0,0,0,0,0,0,0,0,0,
0,0,0,0,0,0,0,0,0,0,0,0,0,0,0,0,0,0,0,0,0,34576,34577,34576,34577,34576,34577,34576,34577,34576,34577,34576,34577,34576,34577,34576,34577,34576,34577,34576,34577,34576,34577,34576,34577,34576,34577,34576,34577,34576,34577,34576,34577,34576,34577,34576,34577,34576,0,0,0,0,0,0,0,0,0,0,0,0,0,0,0,0,0,0,0,0,0,0,0,0,0,0,0,0,0,0,0,0,0,0,0,0,0,0,0,0,0,0,0,0,0,0,0,0,0,0,0,0,0,0,0,0,0,0,0,0,0,0,
0,0,0,0,0,0,0,0,0,0,0,0,0,0,0,0,0,0,0,0,0,34576,34577,34576,34577,34576,34577,34576,34577,34576,34577,34576,34577,34576,34577,34576,34577,34576,34577,34576,34577,34576,34577,34576,34577,34576,34577,34576,34577,34576,34577,34576,34577,34576,34577,34576,34577,34576,0,0,0,0,0,0,0,0,0,0,0,0,0,0,0,0,0,0,0,0,0,0,0,0,0,0,0,0,0,0,0,0,0,0,0,0,0,0,0,0,0,0,0,0,0,0,0,0,0,0,0,0,0,0,0,0,0,0,0,0,0,0,
0,0,0,0,0,0,0,0,0,0,0,0,0,0,0,0,0,0,0,0,0,34576,34577,34576,34577,34576,34577,34576,34577,34576,34577,34576,34577,34576,34577,34576,34577,34576,34577,34576,34577,34576,34577,34576,34577,34576,34577,34576,34577,34576,34577,34576,34577,34576,34577,34576,34577,34576,0,0,0,0,0,0,0,0,0,0,0,0,0,0,0,0,0,0,0,0,0,0,0,0,0,0,0,0,0,0,0,0,0,0,0,0,0,0,0,0,0,0,0,0,0,0,0,0,0,0,0,0,0,0,0,0,0,0,0,0,0,0,
0,0,0,0,0,0,0,0,0,0,0,0,0,0,0,0,0,0,0,0,0,34576,34577,34576,34577,34576,34577,34576,34577,34576,34577,34576,34577,34576,34577,34576,34577,34576,34577,34576,34577,34576,34577,34576,34577,34576,34577,34576,34577,34576,34577,34576,34577,34576,34577,34576,34577,34576,0,0,0,0,0,0,0,0,0,0,0,0,0,0,0,0,0,0,0,0,0,0,0,0,0,0,0,0,0,0,0,0,0,0,0,0,0,0,0,0,0,0,0,0,0,0,0,0,0,0,0,0,0,0,0,0,0,0,0,0,0,0,
0,0,0,0,0,0,0,0,0,0,0,0,0,0,0,0,0,0,0,0,0,34576,34577,34576,34577,34576,34577,34576,34577,34576,34577,34576,34577,34576,34577,34576,34577,34576,34577,34576,34577,34576,34577,34576,34577,34576,34577,34576,34577,34576,34577,34576,34577,34576,34577,34576,34577,34576,0,0,0,0,0,0,0,0,0,0,0,0,0,0,0,0,0,0,0,0,0,0,0,0,0,0,0,0,0,0,0,0,0,0,0,0,0,0,0,0,0,0,0,0,0,0,0,0,0,0,0,0,0,0,0,0,0,0,0,0,0,0,
0,0,0,0,0,0,0,0,0,0,0,0,0,0,0,0,0,0,0,0,0,34576,34577,34576,34577,34576,34577,34576,34577,34576,34577,34576,34577,34576,34577,34576,34577,34576,34577,34576,34577,34576,34577,34576,34577,34576,34577,34576,34577,34576,34577,34576,34577,34576,34577,34576,34577,34576,0,0,0,0,0,0,0,0,0,0,0,0,0,0,0,0,0,0,0,0,0,0,0,0,0,0,0,0,0,0,0,0,0,0,0,0,0,0,0,0,0,0,0,0,0,0,0,0,0,0,0,0,0,0,0,0,0,0,0,0,0,0,
0,0,0,0,0,0,0,0,0,0,0,0,0,0,0,0,0,0,0,0,0,34576,34577,34576,34577,34576,34577,34576,34577,34576,34577,34576,34577,34576,34577,34576,34577,34576,34577,34576,34577,34576,34577,34576,34577,34576,34577,34576,34577,34576,34577,34576,34577,34576,34577,34576,34577,34576,0,0,0,0,0,0,0,0,0,0,0,0,0,0,0,0,0,0,0,0,0,0,0,0,0,0,0,0,0,0,0,0,0,0,0,0,0,0,0,0,0,0,0,0,0,0,0,0,0,0,0,0,0,0,0,0,0,0,0,0,0,0,
0,0,0,0,0,0,0,0,0,0,0,0,0,0,0,0,0,0,0,0,0,34576,34577,34576,34577,34576,34577,34576,34577,34576,34577,34576,34577,34576,34577,34576,34577,34576,34577,34576,34577,34576,34577,34576,34577,34576,34577,34576,34577,34576,34577,34576,34577,34576,34577,34576,34577,34576,0,0,0,0,0,0,0,0,0,0,0,0,0,0,0,0,0,0,0,0,0,0,0,0,0,0,0,0,0,0,0,0,0,0,0,0,0,0,0,0,0,0,0,0,0,0,0,0,0,0,0,0,0,0,0,0,0,0,0,0,0,0,
0,0,0,0,0,0,0,0,0,0,0,0,0,0,0,0,0,0,0,0,0,34576,34577,34576,34577,34576,34577,34576,34577,34576,34577,34576,34577,34576,34577,34576,34577,34576,34577,34576,34577,34576,34577,34576,34577,34576,34577,34576,34577,34576,34577,34576,34577,34576,34577,34576,34577,34576,0,0,0,0,0,0,0,0,0,0,0,0,0,0,0,0,0,0,0,0,0,0,0,0,0,0,0,0,0,0,0,0,0,0,0,0,0,0,0,0,0,0,0,0,0,0,0,0,0,0,0,0,0,0,0,0,0,0,0,0,0,0,
0,0,0,0,0,0,0,0,0,0,0,0,0,0,0,0,0,0,0,0,0,34576,34577,34576,34577,34576,34577,34576,34577,34576,34577,34576,34577,34576,34577,34576,34577,34576,34577,34576,34577,34576,34577,34576,34577,34576,34577,34576,34577,34576,34577,34576,34577,34576,34577,34576,34577,34576,0,0,0,0,0,0,0,0,0,0,0,0,0,0,0,0,0,0,0,0,0,0,0,0,0,0,0,0,0,0,0,0,0,0,0,0,0,0,0,0,0,0,0,0,0,0,0,0,0,0,0,0,0,0,0,0,0,0,0,0,0,0,
0,0,0,0,0,0,0,0,0,0,0,0,0,0,0,0,0,0,0,0,0,34576,34577,34576,34577,34576,34577,34576,34577,34576,34577,34576,34577,34576,34577,34576,34577,34576,34577,34576,34577,34576,34577,34576,34577,34576,34577,34576,34577,34576,34577,34576,34577,34576,34577,34576,34577,34576,0,0,0,0,0,0,0,0,0,0,0,0,0,0,0,0,0,0,0,0,0,0,0,0,0,0,0,0,0,0,0,0,0,0,0,0,0,0,0,0,0,0,0,0,0,0,0,0,0,0,0,0,0,0,0,0,0,0,0,0,0,0,
0,0,0,0,0,0,0,0,0,0,0,0,0,0,0,0,0,0,0,0,0,34576,34577,34576,34577,34576,34577,34576,34577,34576,34577,34576,34577,34576,34577,34576,34577,34576,34577,34576,34577,34576,34577,34576,34577,34576,34577,34576,34577,34576,34577,34576,34577,34576,34577,34576,34577,34576,0,0,0,0,0,0,0,0,0,0,0,0,0,0,0,0,0,0,0,0,0,0,0,0,0,0,0,0,0,0,0,0,0,0,0,0,0,0,0,0,0,0,0,0,0,0,0,0,0,0,0,0,0,0,0,0,0,0,0,0,0,0,
0,0,0,0,0,0,0,0,0,0,0,0,0,0,0,0,0,0,0,0,0,34576,34577,34576,34577,34576,34577,34576,34577,34576,34577,34576,34577,34576,34577,34576,34577,34576,34577,34576,34577,34576,34577,34576,34577,34576,34577,34576,34577,34576,34577,34576,34577,34576,34577,34576,34577,34576,0,0,0,0,0,0,0,0,0,0,0,0,0,0,0,0,0,0,0,0,0,0,0,0,0,0,0,0,0,0,0,0,0,0,0,0,0,0,0,0,0,0,0,0,0,0,0,0,0,0,0,0,0,0,0,0,0,0,0,0,0,0,
0,0,0,0,0,0,0,0,0,0,0,0,0,0,0,0,0,0,0,0,0,34576,34577,34576,34577,34576,34577,34576,34577,34576,34577,34576,34577,34576,34577,34576,34577,34576,34577,34576,34577,34576,34577,34576,34577,34576,34577,34576,34577,34576,34577,34576,34577,34576,34577,34576,34577,34576,0,0,0,0,0,0,0,0,0,0,0,0,0,0,0,0,0,0,0,0,0,0,0,0,0,0,0,0,0,0,0,0,0,0,0,0,0,0,0,0,0,0,0,0,0,0,0,0,0,0,0,0,0,0,0,0,0,0,0,0,0,0,
0,0,0,0,0,0,0,0,0,0,0,0,0,0,0,0,0,0,0,0,0,34576,34577,34576,34577,34576,34577,34576,34577,34576,34577,34576,34577,34576,34577,34576,34577,34576,34577,34576,34577,34576,34577,34576,34577,34576,34577,34576,34577,34576,34577,34576,34577,34576,34577,34576,34577,34576,0,0,0,0,0,0,0,0,0,0,0,0,0,0,0,0,0,0,0,0,0,0,0,0,0,0,0,0,0,0,0,0,0,0,0,0,0,0,0,0,0,0,0,0,0,0,0,0,0,0,0,0,0,0,0,0,0,0,0,0,0,0,
0,0,0,0,0,0,0,0,0,0,0,0,0,0,0,0,0,0,0,0,0,34576,34577,34576,34577,34576,34577,34576,34577,34576,34577,34576,34577,34576,34577,34576,34577,34576,34577,34576,34577,34576,34577,34576,34577,34576,34577,34576,34577,34576,34577,34576,34577,34576,34577,34576,34577,34576,0,0,0,0,0,0,0,0,0,0,0,0,0,0,0,0,0,0,0,0,0,0,0,0,0,0,0,0,0,0,0,0,0,0,0,0,0,0,0,0,0,0,0,0,0,0,0,0,0,0,0,0,0,0,0,0,0,0,0,0,0,0,
0,0,0,0,0,0,0,0,0,0,0,0,0,0,0,0,0,0,0,0,0,34576,34577,34576,34577,34576,34577,34576,34577,34576,34577,34576,34577,34576,34577,34576,34577,34576,34577,34576,34577,34576,34577,34576,34577,34576,34577,34576,34577,34576,34577,34576,34577,34576,34577,34576,34577,34576,0,0,0,0,0,0,0,0,0,0,0,0,0,0,0,0,0,0,0,0,0,0,0,0,0,0,0,0,0,0,0,0,0,0,0,0,0,0,0,0,0,0,0,0,0,0,0,0,0,0,0,0,0,0,0,0,0,0,0,0,0,0,
0,0,0,0,0,0,0,0,0,0,0,0,0,0,0,0,0,0,0,0,0,34576,34577,34576,34577,34576,34577,34576,34577,34576,34577,34576,34577,34576,34577,34576,34577,34576,34577,34576,34577,34576,34577,34576,34577,34576,34577,34576,34577,34576,34577,34576,34577,34576,34577,34576,34577,34576,0,0,0,0,0,0,0,0,0,0,0,0,0,0,0,0,0,0,0,0,0,0,0,0,0,0,0,0,0,0,0,0,0,0,0,0,0,0,0,0,0,0,0,0,0,0,0,0,0,0,0,0,0,0,0,0,0,0,0,0,0,0,
0,0,0,0,0,0,0,0,0,0,0,0,0,0,0,0,0,0,0,0,0,34576,34577,34576,34577,34576,34577,34576,34577,34576,34577,34576,34577,34576,34577,34576,34577,34576,34577,34576,34577,34576,34577,34576,34577,34576,34577,34576,34577,34576,34577,34576,34577,34576,34577,34576,34577,34576,0,0,0,0,0,0,0,0,0,0,0,0,0,0,0,0,0,0,0,0,0,0,0,0,0,0,0,0,0,0,0,0,0,0,0,0,0,0,0,0,0,0,0,0,0,0,0,0,0,0,0,0,0,0,0,0,0,0,0,0,0,0,
0,0,0,0,0,0,0,0,0,0,0,0,0,0,0,0,0,0,0,0,0,34576,34577,34576,34577,34576,34577,34576,34577,34576,34577,34576,34577,34576,34577,34576,34577,34576,34577,34576,34577,34576,34577,34576,34577,34576,34577,34576,34577,34576,34577,34576,34577,34576,34577,34576,34577,34576,0,0,0,0,0,0,0,0,0,0,0,0,0,0,0,0,0,0,0,0,0,0,0,0,0,0,0,0,0,0,0,0,0,0,0,0,0,0,0,0,0,0,0,0,0,0,0,0,0,0,0,0,0,0,0,0,0,0,0,0,0,0,
0,0,0,0,0,0,0,0,0,0,0,0,0,0,0,0,0,0,0,0,0,34576,34577,34576,34577,34576,34577,34576,34577,34576,34577,34576,34577,34576,34577,34576,34577,34576,34577,34576,34577,34576,34577,34576,34577,34576,34577,34576,34577,34576,34577,34576,34577,34576,34577,34576,34577,34576,0,0,0,0,0,0,0,0,0,0,0,0,0,0,0,0,0,0,0,0,0,0,0,0,0,0,0,0,0,0,0,0,0,0,0,0,0,0,0,0,0,0,0,0,0,0,0,0,0,0,0,0,0,0,0,0,0,0,0,0,0,0,
0,0,0,0,0,0,0,0,0,0,0,0,0,0,0,0,0,0,0,0,0,34576,34577,34576,34577,34576,34577,34576,34577,34576,34577,34576,34577,34576,34577,34576,34577,34576,34577,34576,34577,34576,34577,34576,34577,34576,34577,34576,34577,34576,34577,34576,34577,34576,34577,34576,34577,34576,0,0,0,0,0,0,0,0,0,0,0,0,0,0,0,0,0,0,0,0,0,0,0,0,0,0,0,0,0,0,0,0,0,0,0,0,0,0,0,0,0,0,0,0,0,0,0,0,0,0,0,0,0,0,0,0,0,0,0,0,0,0,
0,0,0,0,0,0,0,0,0,0,0,0,0,0,0,0,0,0,0,0,0,34576,34577,34576,34577,34576,34577,34576,34577,34576,34577,34576,34577,34576,34577,34576,34577,34576,34577,34576,34577,34576,34577,34576,34577,34576,34577,34576,34577,34576,34577,34576,34577,34576,34577,34576,34577,34576,0,0,0,0,0,0,0,0,0,0,0,0,0,0,0,0,0,0,0,0,0,0,0,0,0,0,0,0,0,0,0,0,0,0,0,0,0,0,0,0,0,0,0,0,0,0,0,0,0,0,0,0,0,0,0,0,0,0,0,0,0,0,
0,0,0,0,0,0,0,0,0,0,0,0,0,0,0,0,0,0,0,0,0,34576,34577,34576,34577,34576,34577,34576,34577,34576,34577,34576,34577,34576,34577,34576,34577,34576,34577,34576,34577,34576,34577,34576,34577,34576,34577,34576,34577,34576,34577,34576,34577,34576,34577,34576,34577,34576,0,0,0,0,0,0,0,0,0,0,0,0,0,0,0,0,0,0,0,0,0,0,0,0,0,0,0,0,0,0,0,0,0,0,0,0,0,0,0,0,0,0,0,0,0,0,0,0,0,0,0,0,0,0,0,0,0,0,0,0,0,0,
0,0,0,0,0,0,0,0,0,0,0,0,0,0,0,0,0,0,0,0,0,34576,34577,34576,34577,34576,34577,34576,34577,34576,34577,34576,34577,34576,34577,34576,34577,34576,34577,34576,34577,34576,34577,34576,34577,34576,34577,34576,34577,34576,34577,34576,34577,34576,34577,34576,34577,34576,0,0,0,0,0,0,0,0,0,0,0,0,0,0,0,0,0,0,0,0,0,0,0,0,0,0,0,0,0,0,0,0,0,0,0,0,0,0,0,0,0,0,0,0,0,0,0,0,0,0,0,0,0,0,0,0,0,0,0,0,0,0,
0,0,0,0,0,0,0,0,0,0,0,0,0,0,0,0,0,0,0,0,0,34576,34577,34576,34577,34576,34577,34576,34577,34576,34577,34576,34577,34576,34577,34576,34577,34576,34577,34576,34577,34576,34577,34576,34577,34576,34577,34576,34577,34576,34577,34576,34577,34576,34577,34576,34577,34576,0,0,0,0,0,0,0,0,0,0,0,0,0,0,0,0,0,0,0,0,0,0,0,0,0,0,0,0,0,0,0,0,0,0,0,0,0,0,0,0,0,0,0,0,0,0,0,0,0,0,0,0,0,0,0,0,0,0,0,0,0,0,
0,0,0,0,0,0,0,0,0,0,0,0,0,0,0,0,0,0,0,0,0,34576,34577,34576,34577,34576,34577,34576,34577,34576,34577,34576,34577,34576,34577,34576,34577,34576,34577,34576,34577,34576,34577,34576,34577,34576,34577,34576,34577,34576,34577,34576,34577,34576,34577,34576,34577,34576,0,0,0,0,0,0,0,0,0,0,0,0,0,0,0,0,0,0,0,0,0,0,0,0,0,0,0,0,0,0,0,0,0,0,0,0,0,0,0,0,0,0,0,0,0,0,0,0,0,0,0,0,0,0,0,0,0,0,0,0,0,0,
0,0,0,0,0,0,0,0,0,0,0,0,0,0,0,0,0,0,0,0,0,34576,34577,34576,34577,34576,34577,34576,34577,34576,34577,34576,34577,34576,34577,34576,34577,34576,34577,34576,34577,34576,34577,34576,34577,34576,34577,34576,34577,34576,34577,34576,34577,34576,34577,34576,34577,34576,0,0,0,0,0,0,0,0,0,0,0,0,0,0,0,0,0,0,0,0,0,0,0,0,0,0,0,0,0,0,0,0,0,0,0,0,0,0,0,0,0,0,0,0,0,0,0,0,0,0,0,0,0,0,0,0,0,0,0,0,0,0,
0,0,0,0,0,0,0,0,0,0,0,0,0,0,0,0,0,0,0,0,0,34576,34577,34576,34577,34576,34577,34576,34577,34576,34577,34576,34577,34576,34577,34576,34577,34576,34577,34576,34577,34576,34577,34576,34577,34576,34577,34576,34577,34576,34577,34576,34577,34576,34577,34576,34577,34576,0,0,0,0,0,0,0,0,0,0,0,0,0,0,0,0,0,0,0,0,0,0,0,0,0,0,0,0,0,0,0,0,0,0,0,0,0,0,0,0,0,0,0,0,0,0,0,0,0,0,0,0,0,0,0,0,0,0,0,0,0,0,
0,0,0,0,0,0,0,0,0,0,0,0,0,0,0,0,0,0,0,0,0,0,0,0,0,0,0,0,0,0,0,0,0,0,0,0,0,0,0,0,0,0,0,0,0,0,0,0,0,0,0,0,0,0,0,0,0,0,0,0,0,0,0,0,0,0,0,0,0,0,0,0,0,0,0,0,0,0,0,0,0,0,0,0,0,0,0,0,0,0,0,0,0,0,0,0,0,0,0,0,0,0,0,0,0,0,0,0,0,0,0,0,0,0,0,0,0,0,0,0,
0,0,0,0,0,0,0,0,0,0,0,0,0,0,0,0,0,0,0,0,0,0,0,0,0,0,0,0,0,0,0,0,0,0,0,0,0,0,0,0,0,0,0,0,0,0,0,0,0,0,0,0,0,0,0,0,0,0,0,0,0,0,0,0,0,0,0,0,0,0,0,0,0,0,0,0,0,0,0,0,0,0,0,0,0,0,0,0,0,0,0,0,0,0,0,0,0,0,0,0,0,0,0,0,0,0,0,0,0,0,0,0,0,0,0,0,0,0,0,0,
0,0,0,0,0,0,0,0,0,0,0,0,0,0,0,0,0,0,0,0,0,0,0,0,0,0,0,0,0,0,0,0,0,0,0,0,0,0,0,0,0,0,0,0,0,0,0,0,0,0,0,0,0,0,0,0,0,0,0,0,0,0,0,0,0,0,0,0,0,0,0,0,0,0,0,0,0,0,0,0,0,0,0,0,0,0,0,0,0,0,0,0,0,0,0,0,0,0,0,0,0,0,0,0,0,0,0,0,0,0,0,0,0,0,0,0,0,0,0,0,
0,0,0,0,0,0,0,0,0,0,0,0,0,0,0,0,0,0,0,0,0,0,0,0,0,0,0,0,0,0,0,0,0,0,0,0,0,0,0,0,0,0,0,0,0,0,0,0,0,0,0,0,0,0,0,0,0,0,0,0,0,0,0,0,0,0,0,0,0,0,0,0,0,0,0,0,0,0,0,0,0,0,0,0,0,0,0,0,0,0,0,0,0,0,0,0,0,0,0,0,0,0,0,0,0,0,0,0,0,0,0,0,0,0,0,0,0,0,0,0,
0,0,0,0,0,0,0,0,0,0,0,0,0,0,0,0,0,0,0,0,0,0,0,0,0,0,0,0,0,0,0,0,0,0,0,0,0,0,0,0,0,0,0,0,0,0,0,0,0,0,0,0,0,0,0,0,0,0,0,0,0,0,0,0,0,0,0,0,0,0,0,0,0,0,0,0,0,0,0,0,0,0,0,0,0,0,0,0,0,0,0,0,0,0,0,0,0,0,0,0,0,0,0,0,0,0,0,0,0,0,0,0,0,0,0,0,0,0,0,0,
0,0,0,0,0,0,0,0,0,0,0,0,0,0,0,0,0,0,0,0,0,0,0,0,0,0,0,0,0,0,0,0,0,0,0,0,0,0,0,0,0,0,0,0,0,0,0,0,0,0,0,0,0,0,0,0,0,0,0,0,0,0,0,0,0,0,0,0,0,0,0,0,0,0,0,0,0,0,0,0,0,0,0,0,0,0,0,0,0,0,0,0,0,0,0,0,0,0,0,0,0,0,0,0,0,0,0,0,0,0,0,0,0,0,0,0,0,0,0,0,
0,0,0,0,0,0,0,0,0,0,0,0,0,0,0,0,0,0,0,0,0,0,0,0,0,0,0,0,0,0,0,0,0,0,0,0,0,0,0,0,0,0,0,0,0,0,0,0,0,0,0,0,0,0,0,0,0,0,0,0,0,0,0,0,0,0,0,0,0,0,0,0,0,0,0,0,0,0,0,0,0,0,0,0,0,0,0,0,0,0,0,0,0,0,0,0,0,0,0,0,0,0,0,0,0,0,0,0,0,0,0,0,0,0,0,0,0,0,0,0,
0,0,0,0,0,0,0,0,0,0,0,0,0,0,0,0,0,0,0,0,0,0,0,0,0,0,0,0,0,0,0,0,0,0,0,0,0,0,0,0,0,0,0,0,0,0,0,0,0,0,0,0,0,0,0,0,0,0,0,0,0,0,0,0,0,0,0,0,0,0,0,0,0,0,0,0,0,0,0,0,0,0,0,0,0,0,0,0,0,0,0,0,0,0,0,0,0,0,0,0,0,0,0,0,0,0,0,0,0,0,0,0,0,0,0,0,0,0,0,0,
0,0,0,0,0,0,0,0,0,0,0,0,0,0,0,0,0,0,0,0,0,0,0,0,0,0,0,0,0,0,0,0,0,0,0,0,0,0,0,0,0,0,0,0,0,0,0,0,0,0,0,0,0,0,0,0,0,0,0,0,0,0,0,0,0,0,0,0,0,0,0,0,0,0,0,0,0,0,0,0,0,0,0,0,0,0,0,0,0,0,0,0,0,0,0,0,0,0,0,0,0,0,0,0,0,0,0,0,0,0,0,0,0,0,0,0,0,0,0,0,
0,0,0,0,0,0,0,0,0,0,0,0,0,0,0,0,0,0,0,0,0,0,0,0,0,0,0,0,0,0,0,0,0,0,0,0,0,0,0,0,0,0,0,0,0,0,0,0,0,0,0,0,0,0,0,0,0,0,0,0,0,0,0,0,0,0,0,0,0,0,0,0,0,0,0,0,0,0,0,0,0,0,0,0,0,0,0,0,0,0,0,0,0,0,0,0,0,0,0,0,0,0,0,0,0,0,0,0,0,0,0,0,0,0,0,0,0,0,0,0,
0,0,0,0,0,0,0,0,0,0,0,0,0,0,0,0,0,0,0,0,0,0,0,0,0,0,0,0,0,0,0,0,0,0,0,0,0,0,0,0,0,0,0,0,0,0,0,0,0,0,0,0,0,0,0,0,0,0,0,0,0,0,0,0,0,0,0,0,0,0,0,0,0,0,0,0,0,0,0,0,0,0,0,0,0,0,0,0,0,0,0,0,0,0,0,0,0,0,0,0,0,0,0,0,0,0,0,0,0,0,0,0,0,0,0,0,0,0,0,0,
0,0,0,0,0,0,0,0,0,0,0,0,0,0,0,0,0,0,0,0,0,0,0,0,0,0,0,0,0,0,0,0,0,0,0,0,0,0,0,0,0,0,0,0,0,0,0,0,0,0,0,0,0,0,0,0,0,0,0,0,0,0,0,0,0,0,0,0,0,0,0,0,0,0,0,0,0,0,0,0,0,0,0,0,0,0,0,0,0,0,0,0,0,0,0,0,0,0,0,0,0,0,0,0,0,0,0,0,0,0,0,0,0,0,0,0,0,0,0,0,
0,0,0,0,0,0,0,0,0,0,0,0,0,0,0,0,0,0,0,0,0,0,0,0,0,0,0,0,0,0,0,0,0,0,0,0,0,0,0,0,0,0,0,0,0,0,0,0,0,0,0,0,0,0,0,0,0,0,0,0,0,0,0,0,0,0,0,0,0,0,0,0,0,0,0,0,0,0,0,0,0,0,0,0,0,0,0,0,0,0,0,0,0,0,0,0,0,0,0,0,0,0,0,0,0,0,0,0,0,0,0,0,0,0,0,0,0,0,0,0,
0,0,0,0,0,0,0,0,0,0,0,0,0,0,0,0,0,0,0,0,0,0,0,0,0,0,0,0,0,0,0,0,0,0,0,0,0,0,0,0,0,0,0,0,0,0,0,0,0,0,0,0,0,0,0,0,0,0,0,0,0,0,0,0,0,0,0,0,0,0,0,0,0,0,0,0,0,0,0,0,0,0,0,0,0,0,0,0,0,0,0,0,0,0,0,0,0,0,0,0,0,0,0,0,0,0,0,0,0,0,0,0,0,0,0,0,0,0,0,0
</data>
 </layer>
 <layer id="4" name="bg" width="120" height="100">
  <data encoding="csv">
0,0,0,0,0,0,0,0,0,0,0,0,0,0,0,0,0,0,0,0,0,0,0,0,0,0,0,0,0,0,0,0,0,0,0,0,0,0,0,0,0,0,0,0,0,0,0,0,0,0,0,0,0,0,0,0,0,0,0,0,0,0,0,0,0,0,0,0,0,0,0,0,0,0,0,0,0,0,0,0,0,0,0,0,0,0,0,0,0,0,0,0,0,0,0,0,0,0,0,0,0,0,0,0,0,0,0,0,0,0,0,0,0,0,0,0,0,0,0,0,
0,0,0,0,0,0,0,0,0,0,0,0,0,0,0,0,0,0,0,0,0,0,0,0,0,0,0,0,0,0,0,0,0,0,0,0,0,0,0,0,0,0,0,0,0,0,0,0,0,0,0,0,0,0,0,0,0,0,0,0,0,0,0,0,0,0,0,0,0,0,0,0,0,0,0,0,0,0,0,0,0,0,0,0,0,0,0,0,0,0,0,0,0,0,0,0,0,0,0,0,0,0,0,0,0,0,0,0,0,0,0,0,0,0,0,0,0,0,0,0,
0,0,0,0,0,0,0,0,0,0,0,0,0,0,0,0,0,0,0,0,0,0,0,0,0,0,0,0,0,0,0,0,0,0,0,0,0,0,0,0,0,0,0,0,0,0,0,0,0,0,0,0,0,0,0,0,0,0,0,0,0,0,0,0,0,0,0,0,0,0,0,0,0,0,0,0,0,0,0,0,0,0,0,0,0,0,0,0,0,0,0,0,0,0,0,0,0,0,0,0,0,0,0,0,0,0,0,0,0,0,0,0,0,0,0,0,0,0,0,0,
0,0,0,0,0,0,0,0,0,0,0,0,0,0,0,0,0,0,0,0,0,0,0,0,0,0,0,0,0,0,0,0,0,0,0,0,0,0,0,0,0,0,0,0,0,0,0,0,0,0,0,0,0,0,0,0,0,0,0,0,0,0,0,0,0,0,0,0,0,0,0,0,0,0,0,0,0,0,0,0,0,0,0,0,0,0,0,0,0,0,0,0,0,0,0,0,0,0,0,0,0,0,0,0,0,0,0,0,0,0,0,0,0,0,0,0,0,0,0,0,
0,0,0,0,0,0,0,0,0,0,0,0,0,0,0,0,0,0,0,0,0,0,0,0,0,0,0,0,0,0,0,0,0,0,0,0,0,0,0,0,0,0,0,0,0,0,0,0,0,0,0,0,0,0,0,0,0,0,0,0,0,0,0,0,0,0,0,0,0,0,0,0,0,0,0,0,0,0,0,0,0,0,0,0,0,0,0,0,0,0,0,0,0,0,0,0,0,0,0,0,0,0,0,0,0,0,0,0,0,0,0,0,0,0,0,0,0,0,0,0,
0,0,0,0,0,0,0,0,0,0,0,0,0,0,0,0,0,0,0,0,0,0,0,0,0,0,0,0,0,0,0,0,0,0,0,0,0,0,0,0,0,0,0,0,0,0,0,0,0,0,0,0,0,0,0,0,0,0,0,0,0,0,0,0,0,0,0,0,0,0,0,0,0,0,0,0,0,0,0,0,0,0,0,0,0,0,0,0,0,0,0,0,0,0,0,0,0,0,0,0,0,0,0,0,0,0,0,0,0,0,0,0,0,0,0,0,0,0,0,0,
0,0,0,0,0,0,0,0,0,0,0,0,0,0,0,0,0,0,0,0,0,0,0,0,0,0,0,0,0,0,0,0,0,0,0,0,0,0,0,0,0,0,0,0,0,0,0,0,0,0,0,0,0,0,0,0,0,0,0,0,0,0,0,0,0,0,0,0,0,0,0,0,0,0,0,0,0,0,0,0,0,0,0,0,0,0,0,0,0,0,0,0,0,0,0,0,0,0,0,0,0,0,0,0,0,0,0,0,0,0,0,0,0,0,0,0,0,0,0,0,
0,0,0,0,0,0,0,0,0,0,0,0,0,0,0,0,0,0,0,0,0,0,0,0,0,0,0,0,0,0,0,0,0,0,0,0,0,0,0,0,0,0,0,0,0,0,0,0,0,0,0,0,0,0,0,0,0,0,0,0,0,0,0,0,0,0,0,0,0,0,0,0,0,0,0,0,0,0,0,0,0,0,0,0,0,0,0,0,0,0,0,0,0,0,0,0,0,0,0,0,0,0,0,0,0,0,0,0,0,0,0,0,0,0,0,0,0,0,0,0,
0,0,0,0,0,0,0,0,0,0,0,0,0,0,0,0,0,0,0,0,0,0,0,0,0,0,0,0,0,0,0,0,0,0,0,0,0,0,0,0,0,0,0,0,0,0,0,0,0,0,0,0,0,0,0,0,0,0,0,0,0,0,0,0,0,0,0,0,0,0,0,0,0,0,0,0,0,0,0,0,0,0,0,0,0,0,0,0,0,0,0,0,0,0,0,0,0,0,0,0,0,0,0,0,0,0,0,0,0,0,0,0,0,0,0,0,0,0,0,0,
0,0,0,0,0,0,0,0,0,0,0,0,0,0,0,0,0,0,0,0,0,0,0,0,0,0,0,0,0,0,0,0,0,0,0,0,0,0,0,0,0,0,0,0,0,0,0,0,0,0,0,0,0,0,0,0,0,0,0,0,0,0,0,0,0,0,0,0,0,0,0,0,0,0,0,0,0,0,0,0,0,0,0,0,0,0,0,0,0,0,0,0,0,0,0,0,0,0,0,0,0,0,0,0,0,0,0,0,0,0,0,0,0,0,0,0,0,0,0,0,
0,0,0,0,0,0,0,0,0,0,0,0,0,0,0,0,0,0,0,0,0,0,0,0,0,0,0,0,0,0,0,0,0,0,0,0,0,0,0,0,0,0,0,0,0,0,0,0,0,0,0,0,0,0,0,0,0,0,0,0,0,0,0,0,0,0,0,0,0,0,0,0,0,0,0,0,0,0,0,0,0,0,0,0,0,0,0,0,0,0,0,0,0,0,0,0,0,0,0,0,0,0,0,0,0,0,0,0,0,0,0,0,0,0,0,0,0,0,0,0,
0,0,0,0,0,0,0,0,0,0,0,0,0,0,0,0,0,0,0,0,0,0,0,0,0,0,0,0,0,0,0,0,0,0,0,0,0,0,0,0,0,0,0,0,0,0,0,0,0,0,0,0,0,0,0,0,0,0,0,0,0,0,0,0,0,0,0,0,0,0,0,0,0,0,0,0,0,0,0,0,0,0,0,0,0,0,0,0,0,0,0,0,0,0,0,0,0,0,0,0,0,0,0,0,0,0,0,0,0,0,0,0,0,0,0,0,0,0,0,0,
0,0,0,0,0,0,0,0,0,0,0,0,0,0,0,0,0,0,0,0,0,0,0,0,0,0,0,0,0,0,0,0,0,0,0,0,0,0,0,0,0,0,0,0,0,0,0,0,0,0,0,0,0,0,0,0,0,0,0,0,0,0,0,0,0,0,0,0,0,0,0,0,0,0,0,0,0,0,0,0,0,0,0,0,0,0,0,0,0,0,0,0,0,0,0,0,0,0,0,0,0,0,0,0,0,0,0,0,0,0,0,0,0,0,0,0,0,0,0,0,
0,0,0,0,0,0,0,0,0,0,0,0,0,0,0,0,0,0,0,0,0,0,0,0,0,0,0,0,0,0,0,0,0,0,0,0,0,0,0,0,0,0,0,0,0,0,0,0,0,0,0,0,0,0,0,0,0,0,0,0,0,0,0,0,0,0,0,0,0,0,0,0,0,0,0,0,0,0,0,0,0,0,0,0,0,0,0,0,0,0,0,0,0,0,0,0,0,0,0,0,0,0,0,0,0,0,0,0,0,0,0,0,0,0,0,0,0,0,0,0,
0,0,0,0,0,0,0,0,0,0,0,0,0,0,0,0,0,0,0,0,0,0,0,0,0,0,0,0,0,0,0,0,0,0,0,0,0,0,0,0,0,0,0,0,0,0,0,0,0,0,0,0,0,0,0,0,0,0,0,0,0,0,0,0,0,0,0,0,0,0,0,0,0,0,0,0,0,0,0,0,0,0,0,0,0,0,0,0,0,0,0,0,0,0,0,0,0,0,0,0,0,0,0,0,0,0,0,0,0,0,0,0,0,0,0,0,0,0,0,0,
0,0,0,0,0,0,0,0,0,0,0,0,0,0,0,0,0,0,0,0,0,0,0,0,0,0,0,0,0,0,0,0,0,0,0,0,0,0,0,0,0,0,0,0,0,0,0,0,0,0,0,0,0,0,0,0,0,0,0,0,0,0,0,0,0,0,0,0,0,0,0,0,0,0,0,0,0,0,0,0,0,0,0,0,0,0,0,0,0,0,0,0,0,0,0,0,0,0,0,0,0,0,0,0,0,0,0,0,0,0,0,0,0,0,0,0,0,0,0,0,
0,0,0,0,0,0,0,0,0,0,0,0,0,0,0,0,0,0,0,0,0,0,0,0,0,0,0,0,0,0,0,0,0,0,0,0,0,0,0,0,0,0,0,0,0,0,0,0,0,0,0,0,0,0,0,0,0,0,0,0,0,0,0,0,0,0,0,0,0,0,0,0,0,0,0,0,0,0,0,0,0,0,0,0,0,0,0,0,0,0,0,0,0,0,0,0,0,0,0,0,0,0,0,0,0,0,0,0,0,0,0,0,0,0,0,0,0,0,0,0,
0,0,0,0,0,0,0,0,0,0,0,0,0,0,0,0,0,0,0,0,0,0,0,0,0,0,0,0,0,0,0,0,0,0,0,0,0,0,0,0,0,0,0,0,0,0,0,0,0,0,0,0,0,0,0,0,0,0,0,0,0,0,0,0,0,0,0,0,0,0,0,0,0,0,0,0,0,0,0,0,0,0,0,0,0,0,0,0,0,0,0,0,0,0,0,0,0,0,0,0,0,0,0,0,0,0,0,0,0,0,0,0,0,0,0,0,0,0,0,0,
0,0,0,0,0,0,0,0,0,0,0,0,0,0,0,0,0,0,0,0,0,0,0,0,0,0,0,0,0,0,0,0,0,0,0,0,0,0,0,0,0,0,0,0,0,0,0,0,0,0,0,0,0,0,0,0,0,0,0,0,0,0,0,0,0,0,0,0,0,0,0,0,0,0,0,0,0,0,0,0,0,0,0,0,0,0,0,0,0,0,0,0,0,0,0,0,0,0,0,0,0,0,0,0,0,0,0,0,0,0,0,0,0,0,0,0,0,0,0,0,
0,0,0,0,0,0,0,0,0,0,0,0,0,0,0,0,0,0,0,0,0,0,0,0,0,0,0,0,0,0,0,0,0,0,0,0,0,0,0,0,0,0,0,0,0,0,0,0,0,0,0,0,0,0,0,0,0,0,0,0,0,0,0,0,0,0,0,0,0,0,0,0,0,0,0,0,0,0,0,0,0,0,0,0,0,0,0,0,0,0,0,0,0,0,0,0,0,0,0,0,0,0,0,0,0,0,0,0,0,0,0,0,0,0,0,0,0,0,0,0,
0,0,0,0,0,0,0,0,0,0,0,0,0,0,0,0,0,0,0,0,0,0,0,0,0,0,0,0,0,0,0,0,0,0,0,0,0,0,0,0,0,0,0,0,0,0,0,0,0,0,0,0,0,0,0,0,0,0,0,0,0,0,0,0,0,0,0,0,0,0,0,0,0,0,0,0,0,0,0,0,0,0,0,0,0,0,0,0,0,0,0,0,0,0,0,0,0,0,0,0,0,0,0,0,0,0,0,0,0,0,0,0,0,0,0,0,0,0,0,0,
0,0,0,0,0,0,0,0,0,0,0,0,0,0,0,0,0,0,0,0,0,0,0,0,0,0,0,0,0,0,0,0,0,0,0,0,0,0,0,0,0,0,0,0,0,0,0,0,0,0,0,0,0,0,0,0,0,0,0,0,0,0,0,0,0,0,0,0,0,0,0,0,0,0,0,0,0,0,0,0,0,0,0,0,0,0,0,0,0,0,0,0,0,0,0,0,0,0,0,0,0,0,0,0,0,0,0,0,0,0,0,0,0,0,0,0,0,0,0,0,
0,0,0,0,0,0,0,0,0,0,0,0,0,0,0,0,0,0,0,0,0,0,0,0,0,0,0,0,0,0,0,0,0,0,0,0,0,0,0,0,0,0,0,0,0,0,0,0,0,0,0,0,0,0,0,0,0,34404,34404,0,0,0,0,34404,34404,34404,34404,0,0,0,0,0,0,0,0,0,0,0,0,0,0,0,0,0,0,0,0,0,0,0,0,0,0,0,0,0,0,0,0,0,0,0,0,0,0,0,0,0,0,0,0,0,0,0,0,0,0,0,0,0,
0,0,0,0,0,0,0,0,0,0,0,0,0,0,0,0,0,0,0,0,0,0,0,0,0,0,0,0,0,0,0,0,0,0,0,0,0,0,0,0,0,0,0,0,0,0,0,0,0,0,0,0,0,0,0,0,0,34404,34404,0,0,0,0,0,34404,34404,34404,0,0,0,0,0,0,0,0,0,0,0,0,0,0,0,0,0,0,0,0,0,0,0,0,0,0,0,0,0,0,0,0,0,0,0,0,0,0,0,0,0,0,0,0,0,0,0,0,0,0,0,0,0,
0,0,0,0,0,0,0,0,0,0,0,0,0,0,0,0,0,0,0,0,0,0,0,0,0,0,0,0,0,0,0,0,0,0,0,0,0,0,0,0,0,0,0,0,0,0,0,0,0,0,0,0,0,0,0,0,0,34404,34404,34404,34404,34404,34404,34404,34404,34404,34404,0,0,0,0,0,0,0,0,0,0,0,0,0,0,0,0,0,0,0,0,0,0,0,0,0,0,0,0,0,0,0,0,0,0,0,0,0,0,0,0,0,0,0,0,0,0,0,0,0,0,0,0,0,
0,0,0,0,0,0,0,0,0,0,0,0,0,0,0,0,0,0,0,0,0,0,0,0,0,0,0,0,0,0,0,0,0,0,0,0,0,0,0,0,0,0,0,0,0,0,0,0,0,0,0,0,0,0,0,0,0,34404,34404,34404,34404,34404,34404,34404,34404,34404,34404,0,0,0,0,0,0,0,0,0,0,0,0,0,0,0,0,0,0,0,0,0,0,0,0,0,0,0,0,0,0,0,0,0,0,0,0,0,0,0,0,0,0,0,0,0,0,0,0,0,0,0,0,0,
0,0,0,0,0,0,0,0,0,0,0,0,0,0,0,0,0,0,0,0,0,0,0,0,0,0,0,0,0,0,0,0,0,0,0,0,0,0,0,0,0,0,0,0,0,0,0,0,0,0,0,0,0,0,0,0,0,34404,34404,34404,34404,34404,34404,34404,34404,34404,34404,0,0,0,0,0,0,0,0,0,0,0,0,0,0,0,0,0,0,0,0,0,0,0,0,0,0,0,0,0,0,0,34404,0,0,0,0,0,0,0,0,0,0,0,0,0,0,0,0,0,0,0,0,0,
0,0,0,0,0,0,0,0,0,0,0,0,0,0,0,0,0,0,0,0,0,0,0,0,0,0,0,0,0,0,0,0,0,0,0,0,0,0,0,0,0,0,0,0,0,0,0,0,0,0,0,0,0,0,0,0,0,34404,34404,34404,34404,34404,34404,34404,34404,34404,34404,0,0,0,0,0,0,0,0,0,0,0,0,0,0,0,0,0,0,0,0,0,0,0,0,0,0,0,0,0,0,0,34404,0,0,0,0,0,0,0,0,0,0,0,0,0,0,0,0,0,0,0,0,0,
0,0,0,0,0,0,0,0,0,0,0,0,0,0,0,0,0,0,0,0,0,0,0,0,0,0,0,0,0,0,0,0,0,0,0,0,0,0,0,0,0,0,0,0,0,0,0,0,0,0,0,0,0,0,0,0,0,34404,34404,34404,34404,34404,34404,34404,34404,34404,34404,0,0,0,0,0,0,0,0,0,0,0,0,0,0,0,0,0,0,0,0,0,0,0,0,0,0,0,0,0,0,0,34404,0,0,0,0,0,0,0,0,0,0,0,0,0,0,0,0,0,0,0,0,0,
0,0,0,0,0,0,0,0,0,0,0,0,0,0,0,0,0,0,0,0,0,0,0,0,0,0,0,0,0,0,0,0,0,0,0,0,0,0,0,0,0,0,0,0,0,0,0,0,0,0,0,0,0,0,0,0,0,0,0,34404,34404,34404,34404,34404,34404,34404,34404,0,0,0,0,0,0,0,0,0,0,0,0,0,0,0,0,0,0,0,0,0,0,0,0,0,0,0,0,0,0,0,34404,0,0,0,0,0,0,0,0,0,0,0,0,0,0,0,0,0,0,0,0,0,
0,0,0,0,0,0,0,0,0,0,0,0,0,0,0,0,0,0,0,0,0,0,0,0,0,0,0,0,0,0,0,0,0,0,0,0,0,0,0,0,0,0,0,0,0,0,0,0,0,0,0,0,0,0,0,0,0,0,0,0,0,0,0,0,34404,34404,34404,0,0,0,0,0,0,0,0,0,0,0,0,0,0,0,0,0,0,0,0,0,0,0,0,0,0,0,0,0,0,0,34404,0,0,0,0,0,0,0,0,0,0,0,0,0,0,0,0,0,0,0,0,0,
0,0,0,0,0,0,0,0,0,0,0,0,0,0,0,0,0,0,0,0,0,0,0,0,0,0,0,0,0,0,0,0,0,0,0,0,0,0,0,0,0,0,0,0,0,0,0,0,0,0,0,0,0,0,0,0,0,0,0,0,0,0,0,0,0,0,0,0,0,0,0,0,0,0,0,0,0,0,0,0,0,0,0,0,0,0,0,0,0,0,0,0,0,0,0,0,0,0,34404,0,0,0,0,0,0,0,0,0,0,0,0,0,0,0,0,0,0,0,0,0,
0,0,0,0,0,0,0,0,0,0,0,0,0,0,0,0,0,0,0,0,0,0,0,0,0,0,0,0,0,0,0,0,0,0,0,0,0,0,0,0,0,0,0,0,0,0,0,0,0,0,0,0,0,0,0,0,0,0,0,0,0,0,0,0,0,0,0,0,0,0,0,0,0,0,0,0,0,0,0,0,0,0,0,0,0,0,0,0,0,0,0,0,0,0,0,0,0,0,34404,0,0,0,0,0,0,0,0,0,0,0,0,0,0,0,0,0,0,0,0,0,
0,0,0,0,0,0,0,0,0,0,0,0,0,0,0,0,0,0,0,0,0,0,0,0,0,0,0,0,0,0,0,0,0,0,0,0,0,0,0,0,0,0,0,0,0,0,0,0,0,0,0,0,0,0,0,0,0,0,0,0,0,0,0,0,0,0,0,0,0,0,0,0,0,0,0,0,0,0,0,0,0,0,0,0,0,0,0,0,0,0,0,0,0,0,0,0,0,0,34404,0,0,0,0,0,0,0,0,0,0,0,0,0,0,0,0,0,0,0,0,0,
0,0,0,0,0,0,0,0,0,0,0,0,0,0,0,0,0,0,0,0,0,0,0,0,0,0,0,0,0,0,0,0,0,0,0,0,0,0,0,0,0,0,0,0,0,0,0,0,0,0,0,0,0,0,0,0,0,0,0,0,0,0,0,0,0,0,0,0,0,0,0,0,0,0,0,0,0,0,0,0,0,0,0,0,0,0,0,0,0,0,0,0,0,0,0,0,0,0,34404,0,0,0,0,0,0,0,0,0,0,0,0,0,0,0,0,0,0,0,0,0,
0,0,0,0,0,0,0,0,0,0,0,0,0,0,0,0,0,0,0,0,0,0,0,0,0,0,0,0,0,0,0,0,0,0,0,0,0,0,0,0,0,0,0,0,0,0,0,0,0,0,0,0,0,0,0,0,0,0,0,0,0,0,0,0,0,0,0,0,0,0,0,0,0,0,0,0,0,0,0,0,0,0,0,0,0,0,0,0,0,0,0,0,0,0,0,0,0,0,34404,0,0,0,0,0,0,0,0,0,0,0,0,0,0,0,0,0,0,0,0,0,
0,0,0,0,0,0,0,0,0,0,0,0,0,0,0,0,0,0,0,0,0,0,0,0,0,0,0,0,0,0,0,0,0,0,0,0,0,0,0,0,0,0,0,0,0,0,0,0,0,0,0,0,0,0,0,0,0,0,0,0,0,0,0,0,0,0,0,0,0,0,0,0,0,0,0,0,0,0,0,0,0,0,0,0,0,0,0,0,0,0,0,0,0,0,0,0,0,0,0,0,0,0,0,0,0,0,0,0,0,0,0,0,0,0,0,0,0,0,0,0,
0,0,0,0,0,0,0,0,0,0,0,0,0,0,0,0,0,0,0,0,0,0,0,0,0,0,0,0,0,0,0,0,0,0,0,0,0,0,0,0,0,0,0,0,0,0,0,0,0,0,0,0,0,0,0,0,0,0,0,0,0,0,0,0,0,0,0,0,0,0,0,0,0,0,0,0,0,0,0,0,0,0,0,0,0,0,0,0,0,0,0,0,0,0,0,0,0,0,0,0,0,0,0,0,0,0,0,0,0,0,0,0,0,0,0,0,0,0,0,0,
0,0,0,0,0,0,0,0,0,0,0,0,0,0,0,0,0,0,0,0,0,0,0,0,0,0,0,0,0,0,0,0,0,0,0,0,0,0,0,0,0,0,0,0,0,0,0,0,0,0,0,0,0,0,0,0,0,0,0,0,0,0,0,0,0,0,0,0,0,0,0,0,0,0,0,0,0,0,0,0,0,0,0,0,0,0,0,0,0,0,0,0,0,0,0,0,0,0,0,0,0,0,0,0,0,0,0,0,0,0,0,0,0,0,0,0,0,0,0,0,
0,0,0,0,0,0,0,0,0,0,0,0,0,0,0,0,0,0,0,0,0,0,0,0,0,0,0,0,0,0,0,0,0,0,0,0,0,0,0,0,0,0,0,0,0,0,0,0,0,0,0,0,0,0,0,0,0,0,0,0,0,0,0,0,0,0,0,0,0,0,0,0,0,0,0,0,0,0,0,0,0,0,0,0,0,0,0,0,0,0,0,0,0,0,0,0,0,0,0,0,0,0,0,0,0,0,0,0,0,0,0,0,0,0,0,0,0,0,0,0,
0,0,0,0,0,0,0,0,0,0,0,0,0,0,0,0,0,0,0,0,0,0,0,0,0,0,0,0,0,0,0,0,0,0,0,0,0,0,0,0,0,0,0,0,0,0,0,0,0,0,0,0,0,0,0,0,0,0,0,0,0,0,0,0,0,0,0,0,0,0,0,0,0,0,0,0,0,0,0,0,0,0,0,0,0,0,0,0,0,0,0,0,0,0,0,0,0,0,0,0,0,0,0,0,0,0,0,0,0,0,0,0,0,0,0,0,0,0,0,0,
0,0,0,0,0,0,0,0,0,0,0,0,0,0,0,0,0,0,0,0,0,0,0,0,0,0,0,0,0,0,0,0,0,0,0,0,0,0,0,0,0,0,0,0,0,0,0,0,0,0,0,0,0,0,0,0,0,0,0,0,0,0,0,0,0,0,0,0,0,0,0,0,0,0,0,0,0,0,0,0,0,0,0,0,0,0,0,0,0,0,0,0,0,0,0,0,0,0,0,0,0,0,0,0,0,0,0,0,0,0,0,0,0,0,0,0,0,0,0,0,
0,0,0,0,0,0,0,0,0,0,0,0,0,0,0,0,0,0,0,0,0,0,0,0,0,0,0,0,0,0,0,0,0,0,0,0,0,0,0,0,0,0,0,0,0,0,0,0,0,0,0,0,0,0,0,0,0,0,0,0,0,0,0,0,0,0,0,0,0,0,0,0,0,0,0,0,0,0,0,0,0,0,0,0,0,0,0,0,0,0,0,0,0,0,0,0,0,0,0,0,0,0,0,0,0,0,0,0,0,0,0,0,0,0,0,0,0,0,0,0,
0,0,0,0,0,0,0,0,0,0,0,0,0,0,0,0,0,0,0,0,0,0,0,0,0,0,0,0,0,0,0,0,0,0,0,0,0,0,0,0,0,0,0,0,0,0,0,0,0,0,0,0,0,0,0,0,0,0,0,0,0,0,0,0,0,0,0,0,0,0,0,0,0,0,0,0,0,0,0,0,0,0,0,0,0,0,0,0,0,0,0,0,0,0,0,0,0,0,0,0,0,0,0,0,0,0,0,0,0,0,0,0,0,0,0,0,0,0,0,0,
0,0,0,0,0,0,0,0,0,0,0,0,0,0,0,0,0,0,0,0,0,0,0,0,0,0,0,0,0,0,0,0,0,0,0,0,0,0,0,0,0,0,0,0,0,0,0,0,0,0,0,0,0,0,0,0,0,0,0,0,0,0,0,0,0,0,0,0,0,0,0,0,0,0,0,0,0,0,0,0,0,0,0,0,0,0,0,0,0,0,0,0,0,0,0,0,0,0,0,0,0,0,0,0,0,0,0,0,0,0,0,0,0,0,0,0,0,0,0,0,
0,0,0,0,0,0,0,0,0,0,0,0,0,0,0,0,0,0,0,0,0,0,0,0,0,0,0,0,0,0,0,0,0,0,0,0,0,0,0,0,0,0,0,0,0,0,0,0,0,0,0,0,0,0,0,0,0,0,0,0,0,0,0,0,0,0,0,0,0,0,0,0,0,0,0,0,0,0,0,0,0,0,0,0,0,0,0,0,0,0,0,0,0,0,0,0,0,0,0,0,0,0,0,0,0,0,0,0,0,0,0,0,0,0,0,0,0,0,0,0,
0,0,0,0,0,0,0,0,0,0,0,0,0,0,0,0,0,0,0,0,0,0,0,0,0,0,0,0,0,0,0,0,0,0,0,0,0,0,0,0,0,0,0,0,0,0,0,0,0,0,0,0,0,0,0,0,0,0,0,0,0,0,0,0,0,0,0,0,0,0,0,0,0,0,0,0,0,0,0,0,0,0,0,0,0,0,0,0,0,0,0,0,0,0,0,0,0,0,0,0,0,0,0,0,0,0,0,0,0,0,0,0,0,0,0,0,0,0,0,0,
0,0,0,0,0,0,0,0,0,0,0,0,0,0,0,0,0,0,0,0,0,0,0,0,0,0,0,0,0,0,0,0,0,0,0,0,0,0,0,0,0,0,0,0,0,0,0,0,0,0,0,0,0,0,0,0,0,0,0,0,0,0,0,0,0,0,0,0,0,0,0,0,0,0,0,0,0,0,0,0,0,0,0,0,0,0,0,0,0,0,0,0,0,0,0,0,0,0,0,0,0,0,0,0,0,0,0,0,0,0,0,0,0,0,0,0,0,0,0,0,
0,0,0,0,0,0,0,0,0,0,0,0,0,0,0,0,0,0,0,0,0,0,0,0,0,0,0,0,0,0,0,0,0,0,0,0,0,0,0,0,0,0,0,0,0,0,0,0,0,0,0,0,0,0,0,0,0,0,0,0,0,0,0,0,0,0,0,0,0,0,0,0,0,0,0,0,0,0,0,0,0,0,0,0,0,0,0,0,0,0,0,0,0,0,0,0,0,0,0,0,0,0,0,0,0,0,0,0,0,0,0,0,0,0,0,0,0,0,0,0,
0,0,0,0,0,0,0,0,0,0,0,0,0,0,0,0,0,0,0,0,0,0,0,0,0,0,0,0,0,0,0,0,0,0,0,0,0,0,0,0,0,0,0,0,0,0,0,0,0,0,0,0,0,0,0,0,0,0,0,0,0,0,0,0,0,0,0,0,0,0,0,0,0,0,0,0,0,0,0,0,0,0,0,0,0,0,0,0,0,0,0,0,0,0,0,0,0,0,0,0,0,0,0,0,0,0,0,0,0,0,0,0,0,0,0,0,0,0,0,0,
0,0,0,0,0,0,0,0,0,0,0,0,0,0,0,0,0,0,0,0,0,0,0,0,0,0,0,0,0,0,0,0,0,0,0,0,0,0,0,34404,34404,34404,34404,34404,34404,0,34404,34404,34404,34404,34404,34404,34404,0,0,0,0,0,0,0,0,0,0,0,0,0,0,0,0,0,0,0,0,0,0,0,0,0,0,0,0,0,0,0,0,0,0,0,0,0,0,0,0,0,0,0,0,0,0,0,0,0,0,0,0,0,0,0,0,0,0,0,0,0,0,0,0,0,0,0,
0,0,0,0,0,0,0,0,0,0,0,0,0,0,0,0,0,0,0,0,0,0,0,0,0,0,0,0,0,0,0,0,0,0,0,0,0,0,0,34404,34404,34404,34404,34404,34404,0,34404,34404,34404,34404,34404,34404,34404,0,0,0,0,0,0,0,0,0,0,0,0,0,0,0,0,0,0,0,0,0,0,0,0,0,0,0,0,0,0,0,0,0,0,0,0,0,0,0,0,0,0,0,0,0,0,0,0,0,0,0,0,0,0,0,0,0,0,0,0,0,0,0,0,0,0,0,
0,0,0,0,0,0,0,0,0,0,0,0,0,0,0,0,0,0,0,0,0,0,0,0,0,0,0,0,0,0,0,0,0,0,0,0,0,0,0,34404,34404,34404,34404,34404,34404,0,34404,34404,34404,34404,34404,34404,34404,0,0,0,0,0,0,0,0,0,0,0,0,0,0,0,0,0,0,0,0,0,0,0,0,0,0,0,0,0,0,0,0,0,0,0,0,0,0,0,0,0,0,0,0,0,0,0,0,0,0,0,0,0,0,0,0,0,0,0,0,0,0,0,0,0,0,0,
0,0,0,0,0,0,0,0,0,0,0,0,0,0,0,0,0,0,0,0,0,0,0,0,0,0,0,0,0,0,34213,34214,34215,34216,34217,0,0,0,0,34404,34404,34404,34404,34404,34404,0,34404,34404,34404,34404,34404,34404,34404,0,0,0,0,0,0,0,0,0,0,0,0,0,0,0,0,0,0,0,0,0,0,0,0,0,0,0,0,0,0,0,0,0,0,0,0,0,0,0,0,0,0,0,0,0,0,0,0,0,0,0,0,0,0,0,0,0,0,0,0,0,0,0,0,0,0,0,
0,0,0,0,0,0,0,0,0,0,0,0,0,0,0,0,0,0,0,0,0,0,0,0,0,0,0,0,0,0,34229,34230,34231,34232,34233,0,0,0,0,0,0,0,0,0,0,0,0,0,0,0,0,0,0,0,0,0,0,0,0,0,0,0,0,0,0,0,0,0,0,0,0,0,0,0,0,0,0,0,0,0,0,0,0,0,0,0,0,0,0,0,0,0,0,0,0,0,0,0,0,0,0,0,0,0,0,0,0,0,0,0,0,0,0,0,0,0,0,0,0,0,
0,0,0,0,0,0,0,0,0,0,0,0,0,0,0,0,0,0,0,0,0,0,0,0,0,0,0,0,0,0,34245,34246,34247,34248,34249,0,0,0,0,0,0,0,0,0,0,0,0,0,0,0,0,0,0,0,0,0,0,0,0,0,0,0,0,0,0,0,0,0,0,0,0,0,0,0,0,0,0,0,0,0,0,0,0,0,0,0,0,0,0,0,0,0,0,0,0,0,0,0,0,0,0,0,0,0,0,0,0,0,0,0,0,0,0,0,0,0,0,0,0,0,
0,0,0,0,0,0,0,0,0,0,0,0,0,0,0,0,0,0,0,0,0,0,0,0,0,0,0,0,0,0,34261,34262,34263,34264,34265,0,0,0,0,0,0,0,0,0,0,0,0,0,0,0,0,0,0,0,0,0,0,0,0,0,0,0,0,0,0,0,0,0,0,0,0,0,0,0,0,0,0,0,0,0,0,0,0,0,0,0,0,0,0,0,0,0,0,0,0,0,0,0,0,0,0,0,0,0,0,0,0,0,0,0,0,0,0,0,0,0,0,0,0,0,
0,0,0,0,0,0,0,0,0,0,0,0,0,0,0,0,0,0,0,0,0,0,0,0,0,0,0,0,0,0,34261,34262,34263,34264,34265,0,0,0,0,0,0,0,0,0,0,0,0,0,0,0,0,0,0,0,0,0,0,0,0,0,0,0,0,0,0,0,0,0,0,0,0,0,0,0,0,0,0,0,0,0,0,0,0,0,0,0,0,0,0,0,0,0,0,0,0,0,0,0,0,0,0,0,0,0,0,0,0,0,0,0,0,0,0,0,0,0,0,0,0,0,
0,0,0,0,0,0,0,0,0,0,0,0,0,0,0,0,0,0,0,0,0,0,0,0,0,0,0,0,0,0,34261,34262,34263,34264,34265,0,0,0,0,0,0,34404,34404,34404,34405,34404,34405,34404,34405,34404,34405,34404,34405,34404,0,0,0,0,0,0,0,0,0,0,0,0,0,0,0,0,0,0,0,0,0,0,0,0,0,0,0,0,0,0,0,0,0,0,0,0,0,0,0,0,0,0,0,0,0,0,0,0,0,0,0,0,0,0,0,0,0,0,0,0,0,0,0,0,0,0,
0,0,0,0,0,0,0,0,0,0,0,0,0,0,0,0,0,0,0,0,0,0,0,0,0,0,0,0,0,0,34261,34262,34263,34264,34265,0,0,0,0,0,0,34404,34404,34420,34421,34420,34421,34420,34421,34420,34421,34420,34421,34420,0,0,0,0,0,0,0,0,0,0,0,0,0,0,0,0,0,0,0,0,0,0,0,0,0,0,0,0,0,0,0,0,0,0,0,0,0,0,0,0,0,0,0,0,0,0,0,0,0,0,0,0,0,0,0,0,0,0,0,0,0,0,0,0,0,0,
0,0,0,0,0,0,0,0,0,0,0,0,0,0,0,0,0,0,0,0,0,0,0,0,0,0,0,0,0,0,34261,34262,34263,34264,34265,0,0,0,0,0,0,34404,34404,34404,34405,34404,34405,34404,34405,34404,34405,34404,34405,34404,0,0,0,0,0,34404,34404,34404,34404,34404,34404,34404,34404,34404,34404,34404,34404,34404,34404,34404,34404,34404,34404,34404,34404,34404,34404,34404,34404,34404,34404,34404,34404,34404,34404,34404,0,0,0,0,0,0,0,0,0,0,0,0,0,0,0,0,0,0,0,0,0,0,0,0,0,0,0,0,0,0,
0,0,0,0,0,0,0,0,0,0,0,0,0,0,0,0,0,0,0,0,0,0,0,0,0,0,0,0,0,0,34261,34262,34263,34264,34265,0,0,0,0,0,0,34404,34404,34420,34421,34420,34421,34420,34421,34420,34421,34420,34421,34420,0,0,0,0,0,34404,34404,34404,34404,34404,34404,34404,34404,34404,34404,34404,34404,34404,34404,34404,34404,34404,34404,34404,34404,34404,34404,34404,34404,34404,34404,34404,34404,34404,34404,34404,0,0,0,0,0,0,0,0,0,0,0,0,0,0,0,0,0,0,0,0,0,0,0,0,0,0,0,0,0,0,
0,0,0,0,0,0,0,0,0,0,0,0,0,0,0,0,0,0,0,0,0,0,0,0,0,0,0,0,0,0,34261,34262,34263,34264,34265,0,0,0,0,0,0,34404,34404,34404,34405,34404,34405,34404,34405,34404,34405,34404,34405,34404,0,0,0,0,0,34404,34404,34404,34404,34404,34404,34404,34404,34404,34404,34404,34404,34404,34404,34404,34404,34404,34404,34404,34404,34404,34404,34404,34404,34404,34404,34404,34404,34404,34404,34404,0,0,0,0,0,0,0,0,0,0,0,0,0,0,0,0,0,0,0,0,0,0,0,0,0,0,0,0,0,0,
0,0,0,0,0,0,0,0,0,0,0,0,0,0,0,0,0,0,0,0,0,0,0,0,0,0,0,0,0,0,34261,34262,34263,34264,34265,0,0,0,0,0,0,0,34404,34420,34421,34420,34421,34420,34421,34420,34421,34420,34421,34420,0,0,0,0,0,34404,34404,34404,34404,34404,34404,34404,34404,34404,34404,34404,34404,34404,34404,34404,34404,34404,34404,34404,34404,34404,34404,34404,34404,34404,34404,34404,34404,34404,34404,34404,0,0,0,0,0,0,0,0,0,0,0,0,0,0,0,0,0,0,0,0,0,0,0,0,0,0,0,0,0,0,
0,0,0,0,0,0,0,0,0,0,0,0,0,0,0,0,0,0,0,0,0,0,0,0,0,0,0,0,0,0,34261,34262,34263,34264,34265,0,0,0,0,0,0,0,0,34404,34405,34404,34405,34404,34405,34404,34405,34404,34405,34404,0,0,0,0,0,34404,34404,34404,34404,34404,34404,34404,34404,34404,34404,34404,34404,34404,34404,34404,34404,34404,34404,34404,34404,34404,34404,34404,34404,34404,34404,34404,34404,34404,34404,34404,34404,0,0,0,0,0,0,0,0,0,0,0,0,0,0,0,0,0,0,0,0,0,0,0,0,0,0,0,0,0,
0,0,0,0,0,0,0,0,0,0,0,0,0,0,0,0,0,0,0,0,0,0,0,0,0,0,0,0,0,0,34261,34262,34263,34264,34265,0,0,0,0,0,0,0,0,0,0,0,0,0,0,0,0,0,0,0,0,0,0,0,0,34404,34404,34404,34404,34404,34404,34404,34404,34404,34404,34404,34404,34404,34404,34404,34404,34404,34404,34404,34404,34404,34404,34404,34404,34404,34404,34404,34404,34404,34404,34404,34404,0,0,0,0,0,0,0,0,0,0,0,0,0,0,0,0,0,0,0,0,0,0,0,0,0,0,0,0,0,
0,0,0,0,0,0,0,0,0,0,0,0,0,0,0,0,0,0,0,0,0,0,0,0,0,0,0,0,0,0,34261,34262,34263,34264,34265,0,0,0,0,0,0,0,0,0,0,0,0,0,0,0,0,0,0,0,0,0,0,0,0,34404,34404,34404,34404,34404,34404,34404,34404,34404,34404,34404,34404,34404,34404,34404,34404,34404,34404,34404,34404,34404,34404,34404,34404,34404,34404,34404,34404,34404,34404,34404,34404,0,0,0,0,0,0,0,0,0,0,0,0,0,0,0,0,0,0,0,0,0,0,0,0,0,0,0,0,0,
0,0,0,0,0,0,0,0,0,0,0,0,0,0,0,0,0,0,0,0,0,0,0,0,0,0,0,0,0,0,34277,34278,34279,34280,34281,0,0,0,0,0,0,0,0,0,0,0,0,0,0,0,0,0,0,0,0,0,0,0,0,34404,34404,34404,34404,34404,34404,34404,34404,34404,34404,34404,34404,34404,34404,34404,34404,34404,34404,34404,34404,34404,34404,34404,34404,34404,34404,34404,34404,34404,34404,34404,34404,0,0,0,0,0,0,0,0,0,0,0,0,0,0,0,0,0,0,0,0,0,0,0,0,0,0,0,0,0,
0,0,0,0,0,0,0,0,0,0,0,0,0,0,0,0,0,0,0,0,0,0,0,0,0,0,0,0,0,0,34293,34294,34295,34296,34297,0,0,0,0,0,0,0,0,0,0,0,0,0,0,0,0,0,0,0,0,0,0,0,0,34404,34404,34404,34404,34404,34404,34404,34404,34404,34404,34404,34404,34404,34404,34404,34404,34404,34404,34404,34404,34404,34404,34404,34404,34404,34404,34404,34404,34404,34404,34404,34404,0,0,0,0,0,0,0,0,0,0,0,0,0,0,0,0,0,0,0,0,0,0,0,0,0,0,0,0,0,
0,0,0,0,0,0,0,0,0,0,0,0,0,0,0,0,0,0,0,0,0,0,0,0,0,0,0,0,0,0,34261,34262,34263,34264,34265,0,0,0,0,0,0,0,0,34404,34404,34404,34404,34404,34405,34404,34405,34404,34405,34404,0,0,0,0,0,34404,34404,34404,34404,34404,34404,34404,34404,34404,34404,34404,34404,34404,34404,34404,34404,34404,34404,34404,34404,34404,34404,34404,34404,34404,34404,34404,34404,34404,34404,34404,34404,0,0,0,0,0,0,0,0,0,0,0,0,0,0,0,0,0,0,0,0,0,0,0,0,0,0,0,0,0,
0,0,0,0,0,0,0,0,0,0,0,0,0,0,0,0,0,0,0,0,0,0,0,0,0,0,0,0,0,0,34277,34278,34279,34280,34281,0,0,0,0,0,0,0,34404,34404,34405,34420,34420,34420,34421,34420,34421,34420,34421,34420,0,0,0,0,0,34404,34404,34404,34404,34404,34404,34404,34404,34404,34404,34404,34404,34404,34404,34404,34404,34404,34404,34404,34404,34404,34404,34404,34404,34404,34404,34404,34404,34404,34404,34404,34404,0,0,0,0,0,0,0,0,0,0,0,0,0,0,0,0,0,0,0,0,0,0,0,0,0,0,0,0,0,
0,0,0,0,0,0,0,0,0,0,0,0,0,0,0,0,0,0,0,0,0,0,0,0,0,0,0,0,0,0,34293,34294,34295,34296,34297,0,0,0,0,0,0,34404,34404,34405,34405,34420,34421,34404,34405,34404,34405,34404,34405,34404,0,0,0,0,0,34404,34404,34404,34404,34404,34404,34404,34404,34404,34404,34404,34404,34404,34404,34404,34404,34404,34404,34404,34404,34404,34404,34404,34404,34404,34404,34404,34404,34404,34404,34404,34404,0,0,0,0,0,0,0,0,0,0,0,0,0,0,0,0,0,0,0,0,0,0,0,0,0,0,0,0,0,
0,0,0,0,0,0,0,0,0,0,0,0,0,0,0,0,0,0,0,0,0,0,0,0,0,0,0,0,0,0,34261,34262,34263,34264,34265,0,0,0,0,0,0,34404,34420,34421,34404,34420,34421,34420,34421,34420,34421,34420,34421,34420,0,0,0,0,0,34404,34404,34404,34404,34404,34404,34404,34404,34404,34404,34404,34404,34404,34404,34404,34404,34404,34404,34404,34404,34404,34404,34404,34404,34404,34404,34404,34404,34404,34404,34404,34404,0,0,0,0,0,0,0,0,0,0,0,0,0,0,0,0,0,0,0,0,0,0,0,0,0,0,0,0,0,
0,0,0,0,0,0,0,0,0,0,0,0,0,0,0,0,0,0,0,0,0,0,0,0,0,0,0,0,0,0,34277,34278,34279,34280,34281,0,0,0,0,0,0,34404,34405,34404,34420,34420,34421,34404,34405,34404,34405,34404,34405,34404,0,0,0,0,0,34404,34404,34404,34404,34404,34404,34404,34404,34404,34404,34404,34404,34404,34404,34404,34404,34404,34404,34404,34404,34404,34404,34404,34404,34404,34404,34404,34404,34404,34404,34404,34404,34404,0,0,0,0,0,0,0,0,0,0,0,0,0,0,0,0,0,0,0,0,0,0,0,0,0,0,0,0,
0,0,0,0,0,0,0,0,0,0,0,0,0,0,0,0,0,0,0,0,0,0,0,0,0,0,0,0,0,0,34293,34294,34295,34296,34297,0,0,0,0,0,0,34420,34404,34405,34420,34420,34421,34420,34421,34420,34421,34420,34421,34420,0,0,0,0,0,34404,34404,34404,34404,34404,34404,34404,34404,34404,34404,34404,34404,34404,34404,34404,34404,34404,34404,34404,34404,34404,34404,34404,34404,34404,34404,34404,34404,34404,34404,34404,34404,34404,0,0,0,0,0,0,0,0,0,0,0,0,0,0,0,0,0,0,0,0,0,0,0,0,0,0,0,0,
0,0,0,0,0,0,0,0,0,0,0,0,0,0,0,0,0,0,0,0,0,0,0,0,0,0,0,0,0,0,34261,34262,34263,34264,34265,0,0,0,0,0,0,34404,34420,34421,34420,34420,34421,34404,34405,34404,34405,34404,34405,34404,0,0,0,0,0,34404,34404,34404,34404,34404,34404,34404,34404,34404,34404,34404,34404,34404,34404,34404,34404,34404,34404,34404,34404,34404,34404,34404,34404,34404,34404,34404,34404,34404,34404,34404,34404,34404,0,0,0,0,0,0,0,0,0,0,0,0,0,0,0,0,0,0,0,0,0,0,0,0,0,0,0,0,
0,0,0,0,0,0,0,0,0,0,0,0,0,0,0,0,0,0,0,0,0,0,0,0,0,0,0,0,0,0,34277,34278,34279,34280,34281,0,0,0,0,0,0,0,0,0,0,0,0,0,0,0,0,0,0,0,0,0,0,0,0,34404,34404,34404,34404,34404,34404,34404,34404,34404,34404,34404,34404,34404,34404,34404,34404,34404,34404,34404,34404,34404,34404,34404,34404,34404,34404,34404,34404,34404,34404,34404,34404,34404,0,0,0,0,0,0,0,0,0,0,0,0,0,0,0,0,0,0,0,0,0,0,0,0,0,0,0,0,
0,0,0,0,0,0,0,0,0,0,0,0,0,0,0,0,0,0,0,0,0,0,0,0,0,0,0,0,0,34308,34309,34310,34311,34312,34313,0,0,0,0,0,0,0,0,0,0,0,0,0,0,0,0,0,0,0,0,0,0,0,0,34404,34404,34404,34404,34404,34404,34404,34404,34404,34404,34404,34404,34404,34404,34404,34404,34404,34404,34404,34404,34404,34404,34404,34404,34404,34404,34404,34404,34404,34404,34404,34404,34404,0,0,0,0,0,0,0,0,0,0,0,0,0,0,0,0,0,0,0,0,0,0,0,0,0,0,0,0,
0,0,0,0,0,0,0,0,0,0,0,0,0,0,0,0,0,0,0,0,0,0,0,0,0,0,0,0,0,0,34325,34326,34327,34328,34329,0,0,0,0,0,0,0,0,0,0,0,0,0,0,0,0,0,0,0,0,0,0,0,0,34404,34404,34404,34404,34404,34404,34404,34404,34404,34404,34404,34404,34404,34404,34404,34404,34404,34404,34404,34404,34404,34404,34404,34404,34404,34404,34404,34404,34404,34404,34404,34404,34404,0,0,0,0,0,0,0,0,0,0,0,0,0,0,0,0,0,0,0,0,0,0,0,0,0,0,0,0,
0,0,0,0,0,0,0,0,0,0,0,0,0,0,0,0,0,0,0,0,0,0,0,0,0,0,0,0,0,0,34341,34342,34343,34344,34345,0,0,0,0,0,0,0,0,0,0,0,0,0,0,0,0,0,0,0,0,0,0,0,0,34404,34404,34404,34404,34404,34404,34404,34404,34404,34404,34404,34404,34404,34404,34404,34404,34404,34404,34404,34404,34404,34404,34404,34404,34404,34404,34404,34404,34404,34404,34404,34404,34404,0,0,0,0,0,0,0,0,0,0,0,0,0,0,0,0,0,0,0,0,0,0,0,0,0,0,0,0,
0,0,0,0,0,0,0,0,0,0,0,0,0,0,0,0,0,0,0,0,0,0,0,0,0,0,0,0,0,0,0,0,0,0,0,0,0,0,0,0,0,0,0,0,0,0,0,0,0,0,0,0,0,0,0,0,0,0,0,34404,34404,34404,34404,34404,34404,34404,34404,34404,34404,34404,34404,34404,34404,34404,34404,34404,34404,34404,34404,34404,34404,34404,34404,34404,34404,34404,34404,34404,34404,34404,34404,34404,0,0,0,0,0,0,0,0,0,0,0,0,0,0,0,0,0,0,0,0,0,0,0,0,0,0,0,0,
0,0,0,0,0,0,0,0,0,0,0,0,0,0,0,0,0,0,0,0,0,0,0,0,0,0,0,0,0,0,0,0,0,0,0,0,0,0,0,0,0,0,0,0,0,0,0,0,0,0,0,0,0,0,0,0,0,0,0,34404,34404,34404,34404,34404,34404,34404,34404,34404,34404,34404,34404,34404,34404,34404,34404,34404,34404,34404,34404,34404,34404,34404,34404,34404,34404,34404,34404,34404,34404,34404,34404,34404,34404,0,0,0,0,0,0,0,0,0,0,0,0,0,0,0,0,0,0,0,0,0,0,0,0,0,0,0,
0,0,0,0,0,0,0,0,0,0,0,0,0,0,0,0,0,0,0,0,0,0,0,0,0,0,0,0,0,0,0,0,0,0,0,0,0,0,0,0,0,0,0,0,0,0,0,0,0,0,0,0,0,0,0,0,0,0,0,34404,34404,34404,34404,34404,34404,34404,34404,34404,34404,34404,34404,34404,34404,34404,34404,34404,34404,34404,34404,34404,34404,34404,34404,34404,34404,34404,34404,34404,34404,34404,34404,34404,34404,0,0,0,0,0,0,0,0,0,0,0,0,0,0,0,0,0,0,0,0,0,0,0,0,0,0,0,
0,0,0,0,0,0,0,0,0,0,0,0,0,0,0,0,0,0,0,0,0,0,0,0,0,0,0,0,0,0,0,0,0,0,0,0,0,0,0,0,0,0,0,0,0,0,0,0,0,0,0,0,0,0,0,0,0,0,0,34404,34404,34404,34404,34404,34404,34404,34404,34404,34404,34404,34404,34404,34404,34404,34404,34404,34404,34404,34404,34404,34404,34404,34404,34404,34404,34404,34404,34404,34404,34404,34404,34404,34404,0,0,0,0,0,0,0,0,0,0,0,0,0,0,0,0,0,0,0,0,0,0,0,0,0,0,0,
0,0,0,0,0,0,0,0,0,0,0,0,0,0,0,0,0,0,0,0,0,0,0,0,0,0,0,0,0,0,0,0,0,0,0,0,0,0,0,0,0,0,0,0,0,0,0,0,0,0,0,0,0,0,0,0,0,0,0,34404,34404,34404,34404,34404,34404,34404,34404,34404,34404,34404,34404,34404,34404,34404,34404,34404,34404,34404,34404,34404,34404,34404,34404,34404,34404,34404,34404,34404,34404,34404,34404,34404,34404,0,0,0,0,0,0,0,0,0,0,0,0,0,0,0,0,0,0,0,0,0,0,0,0,0,0,0,
0,0,0,0,0,0,0,0,0,0,0,0,0,0,0,0,0,0,0,0,0,0,0,0,0,0,0,0,0,0,0,0,0,0,0,0,0,0,0,0,0,0,0,0,0,0,0,0,0,0,0,0,0,0,0,0,0,0,0,34404,34404,34404,34404,34404,34404,34404,34404,34404,34404,34404,34404,34404,34404,34404,34404,34404,34404,34404,34404,34404,34404,34404,34404,34404,34404,34404,34404,34404,34404,34404,34404,34404,34404,0,0,0,0,0,0,0,0,0,0,0,0,0,0,0,0,0,0,0,0,0,0,0,0,0,0,0,
0,0,0,0,0,0,0,0,0,0,0,0,0,0,0,0,0,0,0,0,0,0,0,0,0,0,0,0,0,0,0,0,0,0,0,0,0,0,0,0,0,0,0,0,0,0,0,0,0,0,0,0,0,0,0,0,0,0,0,0,0,0,0,0,0,0,0,0,0,0,0,0,0,0,0,0,0,0,0,0,0,0,0,0,0,0,0,0,0,0,0,0,0,0,0,0,0,0,0,0,0,0,0,0,0,0,0,0,0,0,0,0,0,0,0,0,0,0,0,0,
0,0,0,0,0,0,0,0,0,0,0,0,0,0,0,0,0,0,0,0,0,0,0,0,0,0,0,0,0,0,0,0,0,0,0,0,0,0,0,0,0,0,0,0,0,0,0,0,0,0,0,0,0,0,0,0,0,0,0,0,0,0,0,0,0,0,0,0,0,0,0,0,0,0,0,0,0,0,0,0,0,0,0,0,0,0,0,0,0,0,0,0,0,0,0,0,0,0,0,0,0,0,0,0,0,0,0,0,0,0,0,0,0,0,0,0,0,0,0,0,
0,0,0,0,0,0,0,0,0,0,0,0,0,0,0,0,0,0,0,0,0,0,0,0,0,0,0,0,0,0,0,0,0,0,0,0,0,0,0,0,0,0,0,0,0,0,0,0,0,0,0,0,0,0,0,0,0,0,0,0,0,0,0,0,0,0,0,0,0,0,0,0,0,0,0,0,0,0,0,0,0,0,0,0,0,0,0,0,0,0,0,0,0,0,0,0,0,0,0,0,0,0,0,0,0,0,0,0,0,0,0,0,0,0,0,0,0,0,0,0,
0,0,0,0,0,0,0,0,0,0,0,0,0,0,0,0,0,0,0,0,0,0,0,0,0,0,0,0,0,0,0,0,0,0,0,0,0,0,0,0,0,0,0,0,0,0,0,0,0,0,0,0,0,0,0,0,0,0,0,0,0,0,0,0,0,0,0,0,0,0,0,0,0,0,0,0,0,0,0,0,0,0,0,0,0,0,0,0,0,0,0,0,0,0,0,0,0,0,0,0,0,0,0,0,0,0,0,0,0,0,0,0,0,0,0,0,0,0,0,0,
0,0,0,0,0,0,0,0,0,0,0,0,0,0,0,0,0,0,0,0,0,0,0,0,0,0,0,0,0,0,0,0,0,0,0,0,0,0,0,0,0,0,0,0,0,0,0,0,0,0,0,0,0,0,0,0,0,0,0,0,0,0,0,0,0,0,0,0,0,0,0,0,0,0,0,0,0,0,0,0,0,0,0,0,0,0,0,0,0,0,0,0,0,0,0,0,0,0,0,0,0,0,0,0,0,0,0,0,0,0,0,0,0,0,0,0,0,0,0,0,
0,0,0,0,0,0,0,0,0,0,0,0,0,0,0,0,0,0,0,0,0,0,0,0,0,0,0,0,0,0,0,0,0,0,0,0,0,0,0,0,0,0,0,0,0,0,0,0,0,0,0,0,0,0,0,0,0,0,0,0,0,0,0,0,0,0,0,0,0,0,0,0,0,0,0,0,0,0,0,0,0,0,0,0,0,0,0,0,0,0,0,0,0,0,0,0,0,0,0,0,0,0,0,0,0,0,0,0,0,0,0,0,0,0,0,0,0,0,0,0,
0,0,0,0,0,0,0,0,0,0,0,0,0,0,0,0,0,0,0,0,0,0,0,0,0,0,0,0,0,0,0,0,0,0,0,0,0,0,0,0,0,0,0,0,0,0,0,0,0,0,0,0,0,0,0,0,0,0,0,0,0,0,0,0,0,0,0,0,0,0,0,0,0,0,0,0,0,0,0,0,0,0,0,0,0,0,0,0,0,0,0,0,0,0,0,0,0,0,0,0,0,0,0,0,0,0,0,0,0,0,0,0,0,0,0,0,0,0,0,0,
0,0,0,0,0,0,0,0,0,0,0,0,0,0,0,0,0,0,0,0,0,0,0,0,0,0,0,0,0,0,0,0,0,0,0,0,0,0,0,0,0,0,0,0,0,0,0,0,0,0,0,0,0,0,0,0,0,0,0,0,0,0,0,0,0,0,0,0,0,0,0,0,0,0,0,0,0,0,0,0,0,0,0,0,0,0,0,0,0,0,0,0,0,0,0,0,0,0,0,0,0,0,0,0,0,0,0,0,0,0,0,0,0,0,0,0,0,0,0,0,
0,0,0,0,0,0,0,0,0,0,0,0,0,0,0,0,0,0,0,0,0,0,0,0,0,0,0,0,0,0,0,0,0,0,0,0,0,0,0,0,0,0,0,0,0,0,0,0,0,0,0,0,0,0,0,0,0,0,0,0,0,0,0,0,0,0,0,0,0,0,0,0,0,0,0,0,0,0,0,0,0,0,0,0,0,0,0,0,0,0,0,0,0,0,0,0,0,0,0,0,0,0,0,0,0,0,0,0,0,0,0,0,0,0,0,0,0,0,0,0,
0,0,0,0,0,0,0,0,0,0,0,0,0,0,0,0,0,0,0,0,0,0,0,0,0,0,0,0,0,0,0,0,0,0,0,0,0,0,0,0,0,0,0,0,0,0,0,0,0,0,0,0,0,0,0,0,0,0,0,0,0,0,0,0,0,0,0,0,0,0,0,0,0,0,0,0,0,0,0,0,0,0,0,0,0,0,0,0,0,0,0,0,0,0,0,0,0,0,0,0,0,0,0,0,0,0,0,0,0,0,0,0,0,0,0,0,0,0,0,0,
0,0,0,0,0,0,0,0,0,0,0,0,0,0,0,0,0,0,0,0,0,0,0,0,0,0,0,0,0,0,0,0,0,0,0,0,0,0,0,0,0,0,0,0,0,0,0,0,0,0,0,0,0,0,0,0,0,0,0,0,0,0,0,0,0,0,0,0,0,0,0,0,0,0,0,0,0,0,0,0,0,0,0,0,0,0,0,0,0,0,0,0,0,0,0,0,0,0,0,0,0,0,0,0,0,0,0,0,0,0,0,0,0,0,0,0,0,0,0,0,
0,0,0,0,0,0,0,0,0,0,0,0,0,0,0,0,0,0,0,0,0,0,0,0,0,0,0,0,0,0,0,0,0,0,0,0,0,0,0,0,0,0,0,0,0,0,0,0,0,0,0,0,0,0,0,0,0,0,0,0,0,0,0,0,0,0,0,0,0,0,0,0,0,0,0,0,0,0,0,0,0,0,0,0,0,0,0,0,0,0,0,0,0,0,0,0,0,0,0,0,0,0,0,0,0,0,0,0,0,0,0,0,0,0,0,0,0,0,0,0,
0,0,0,0,0,0,0,0,0,0,0,0,0,0,0,0,0,0,0,0,0,0,0,0,0,0,0,0,0,0,0,0,0,0,0,0,0,0,0,0,0,0,0,0,0,0,0,0,0,0,0,0,0,0,0,0,0,0,0,0,0,0,0,0,0,0,0,0,0,0,0,0,0,0,0,0,0,0,0,0,0,0,0,0,0,0,0,0,0,0,0,0,0,0,0,0,0,0,0,0,0,0,0,0,0,0,0,0,0,0,0,0,0,0,0,0,0,0,0,0,
0,0,0,0,0,0,0,0,0,0,0,0,0,0,0,0,0,0,0,0,0,0,0,0,0,0,0,0,0,0,0,0,0,0,0,0,0,0,0,0,0,0,0,0,0,0,0,0,0,0,0,0,0,0,0,0,0,0,0,0,0,0,0,0,0,0,0,0,0,0,0,0,0,0,0,0,0,0,0,0,0,0,0,0,0,0,0,0,0,0,0,0,0,0,0,0,0,0,0,0,0,0,0,0,0,0,0,0,0,0,0,0,0,0,0,0,0,0,0,0
</data>
 </layer>
 <objectgroup id="3" name="Object Layer 1" visible="0">
  <object id="1" x="560.333" y="848">
   <polygon points="0,0 0,192 31.3333,192.333 31.6667,272.667 -0.458333,272.125 -0.395833,432.125 -80.4583,432 -80.8333,191 -96.8333,191.5 -96.3333,272 -209,272.333 -208.667,-1.66667 -96.7083,0.25 -96.5833,48.125 -144.242,48 -144.333,143.909 -112.083,143.75 -112.083,160.125 -80.1515,160.182 -80.1515,0.181818"/>
  </object>
 </objectgroup>
 <imagelayer id="2" name="Image Layer 1" visible="0" opacity="0.26" offsetx="209.514" offsety="323.747">
  <image source="C:/Users/Asus/Downloads/WhatsApp Image 2026-08-11 at 10.35.04 AM.jpeg" width="1488" height="1057"/>
 </imagelayer>
</map>
